JhonPool4/Concytec-UR5/src/journal/src/prueba_kalman.csv
dddx,dddy,dddz,dddw,dddex,dddey,dddez,dddx_d,dddy_d,dddz_d,dddw_d,dddex_d,dddey_d,dddez_d,dddx_k,dddy_k,dddz_k,dddw_k,dddex_k,dddey_k,dddez_k,ddx_k,ddy_k,ddz_k,ddw_k,ddex_k,ddey_k,ddez_k,e_x,e_y,e_z,e_w,e_ex,e_ey,e_ez,de_x,de_y,de_z,de_w,de_ex,de_ey,de_ez,dde_x,dde_y,dde_z,dde_w,dde_ex,dde_ey,dde_ez,ddde_x,ddde_y,ddde_z,ddde_w,ddde_ex,ddde_ey,ddde_ez,q1,q2,q3,q4,q5,q6,dq1,dq2,dq3,dq4,dq5,dq6,ddq1,ddq2,ddq3,ddq4,ddq5,ddq6,q1_k,q2_k,q3_k,q4_k,q5_k,q6_k,dq1_k,dq2_k,dq3_k,dq4_k,dq5_k,dq6_k,ddq1_k,ddq2_k,ddq3_k,ddq4_k,ddq5_k,ddq6_k
0.0,0.0,0.0,0.0,0.0,0.0,0.0,0.0,-0.0049610042688479706,0.0,0.0,0.0,0.0,0.0,0.0,0.0,0.0,0.0,0.0,0.0,0.0,0.0,0.0,0.0,0.0,0.0,0.0,0.0,0.020000001462890327,1.0798465580920402e-09,3.2759388257641575e-10,-1.553830760725461e-07,-6.203519766975751e-08,4.968961491984308e-07,2.9635123146497418e-05,-0.0,0.012566370614359173,0.0,-0.0,-0.0,-0.0,-0.0,-0.007895683520871485,-0.0,0.0,-0.0,-0.0,-0.0,-0.0,0.22517055734340663,-2.1631463844539867,-2.1391916637216886,-0.4183276479674921,1.5382739831407561,-1.3504534652757598,-0.03889126565933761,-0.22226244539865242,0.05641662783111565,0.16463720325078804,-0.00032668592437415275,-0.038833527575979486,-3.889126565933761,-22.22624453986524,5.641662783111565,16.463720325078803,-0.032668592437415274,-3.8833527575979487,0.0,0.0,0.0,0.0,0.0,0.0,0.0,0.0,0.0,0.0,0.0,0.0,0.0,0.0,0.0,0.0,0.0,0.0,,,,,,,
182.23198984923195,-153.07053879899286,-787.5965689135243,0.24952500092714772,-2.7509438460246134,-1.818927502140696,-0.15325305920386306,3.117070403492432e-05,-0.0049609063428710035,0.0,0.0,0.0,0.0,0.0,9.104621585781953e-07,-7.64766566424264e-07,-3.934967031941292e-06,1.2466695400259584e-09,-1.3744185498117847e-08,-9.0876725939633e-09,-7.656784695535673e-10,0.00018204085832727114,-0.00015290999286481183,-0.0007867705090596419,2.4926329005391446e-07,-2.7480585563202403e-06,-1.817019744989451e-06,-1.5309232183565992e-07,0.019817053743618307,0.0002785726612380214,0.0007873130642935544,-1.6066161434569182e-07,2.69681293647156e-06,5.069031065030988e-07,2.981873091474716e-05,-0.01830215530061778,0.027873176444861068,0.07875965689135243,-2.495250009271477e-05,0.00027509438460246135,0.00018189275021406962,1.5325305920386306e-05,-1.830215426159158,1.5306557782736605,7.875965689135243,-0.0024952500092714773,0.027509438460246134,0.01818927502140696,0.0015325305920386306,0.2248886402626959,-2.1650018754342253,-2.137900726838286,-0.4177676262121647,1.5385034260532926,-1.3507336164280188,-0.028191708071074524,-0.18554909802384822,0.12909368834025453,0.05600217553274303,0.022944291253640524,-0.02801511522589751,1.069955758826308,3.671334737480421,7.267706050913888,-10.8635027718045,2.327097717801468,1.0818412350081976,5.3408802931432985e-05,0.00018326140298035174,0.0003627808692413936,-0.0005422716536624304,0.00011616134815572532,5.4002088261137754e-05,0.010683540286484246,0.036658387273943736,0.07256826251436474,-0.10847240043104196,0.023236140385832025,0.010802217122012993,1.068887938707719,3.667670730756389,7.2604528512622775,-10.852660952670963,2.3247752649892908,1.0807615531369321,,,,,,,
70.2997227971419,283.8205250234578,1044.792985989459,-0.39596345801762856,116.69414438883896,138.31062678190253,-3.254525054532994,6.234017750382615e-05,-0.004960612568806052,0.0,0.0,0.0,0.0,0.0,5.960671734143498e-06,1.8455678644601295e-06,1.1910434917020688e-06,-1.6754715316859721e-09,2.263401477838399e-06,2.71871444395599e-06,-6.887408063536325e-08,0.0006868354515399336,0.00010799409419344269,-0.0002744478095944708,-4.280210389096314e-08,0.00022486019709147342,0.00027083591566943804,-6.96076460124691e-06,0.0193810250109957,0.0004263911939106598,0.001317400765678392,-1.8143255520186585e-07,-0.00010882038352945725,2.490408722566193e-07,3.113967229026373e-05,-0.04363427976388961,0.014797433684014968,0.05304001518375895,-1.0308654383666691e-05,-0.011119225669678974,-0.013467277177762116,0.000356103117294072,-2.533212186574631,-1.3075990797186787,-2.5719641707593484,0.001464384570904808,-1.1394320054281435,-1.3649169927976184,0.03407778113736857,0.22465858472093492,-2.1665606539972058,-2.136095790787654,-0.41794870594616634,1.5393083843584532,-1.350944054338126,-0.023005554176098057,-0.15587785629802886,0.18049360506321882,-0.018107973400167746,0.08049583051605075,-0.021043791010709575,0.5186153894976469,2.9671241725819377,5.139991672296428,-7.411014893291077,5.755153926241022,0.6971324215187934,0.00010389011866860809,0.0005934454445181799,0.0010283804899388171,-0.0014829007913319935,0.0011492411923042347,0.0001395150022682138,0.010388913756128087,0.05935210146620103,0.10284813220057044,-0.14830334285028865,0.11495466152850627,0.013952549288481877,0.5191640161668493,2.9678226237864984,5.142105791118926,-7.414446245294447,5.75173380793469,0.6975149032053518,,,,,,,
-75.74591843756131,-16.076704453917,-55.71808837703438,-0.01203741775747597,174.5772203074697,-212.968330585046,-6.151068570374504,9.350718988926359e-05,-0.004960122958250814,0.0,0.0,0.0,0.0,0.0,0.0021174519256768427,0.0013714843847228248,0.002408490681925617,-1.8942037167478324e-06,0.003445801890777307,-0.0009084506041973,-0.00011415148591583038,0.08518723490038682,0.05491995897370738,0.09606393972501986,-7.578041880508149e-05,0.1380327814250139,-0.036193468414136454,-0.004572464366106348,0.018767466397327626,0.0004595185651992067,0.0016462870696804105,-3.3602135240951014e-07,-0.0005073217405803624,-0.0005367335621734251,5.211772421283007e-05,-0.06139180614940806,0.003328865308935662,0.0328921823138689,5.5389331011289855e-06,-0.039971267754707385,-0.005819614047233697,0.001311987785705208,-1.7757522229596174,-1.1468816390203342,-2.0147832869890046,0.0015847587484795677,-2.8852042085028407,0.7647663130528418,0.0955884668411136,0.22414759821207567,-2.1694381891717556,-2.140905128695382,-0.4200959680458195,1.5293456531840544,-1.356816403288303,-0.05109865088592489,-0.28775351745498584,-0.4809337907727898,-0.2147262099653135,-0.996273117439876,-0.5872348950177001,-2.8093096709826835,-13.187566115695699,-66.14273958360086,-19.661823656514574,-107.67689479559267,-56.61911040069906,-0.00028345912821097624,-0.001174955746849401,-0.008762665034773508,-0.005239721531470517,-0.015038790937371491,-0.008592256880308376,-0.023220270569131292,-0.09929695438286569,-0.6767155295935023,-0.3652184521593542,-1.1497930155040628,-0.647226094568347,-1.699449595482169,-7.800646268509793,-42.373224993451515,-15.578007320282442,-69.85478227841625,-37.50721706267364,,,,,,,
-3128.3175047686286,-1835.5173278722325,-2624.592667844993,3.486390363536071,-6612.55481695275,3835.68512564953,2790.270174157223,0.00012467051077095416,-0.004959437530534273,0.0,0.0,0.0,0.0,0.0,-0.04597561377336466,-0.026584693639498894,-0.03666822691018063,5.262379625942394e-05,-0.10024677452382268,0.06141131927588343,0.04632087959680528,-1.290142646047666,-0.7445487129584593,-1.0214162143539578,0.0014832900363364585,-2.827301932660801,1.7459995179026246,1.3233614733658254,0.02109590957002283,0.0022131211863192137,0.004413931993595563,-2.7818736387130727e-05,0.005430768959966845,-0.00433605767752756,-0.0026866676651836254,0.23368242729262462,0.1754115337104156,0.27520361622847817,-0.00032725251576768246,0.5924321718555393,-0.38174046348165835,-0.27675914496160603,29.507423915618766,17.208242041736376,24.231143391460925,-0.03327914488688114,63.24034396102467,-37.592084943442465,-27.80711327473112,0.22407328708059293,-2.1702476097471384,-2.1386776399897705,-0.44148354876988793,1.508616971311997,-1.3638848976401179,-0.0074311131482747705,-0.08094205753827877,0.22274887056116827,-2.138758072406841,-2.0728681872057386,-0.7068494351814942,4.366753773765012,20.681145991670707,70.3682661333958,-192.40318624415275,-107.65950697658629,-11.961454016379411,0.0003409047591409649,0.0018627184999610359,-0.00014980694613585602,-0.03711594877265646,-0.035897154260389676,-0.012974905434912514,0.03043339330524611,0.1544009603388543,0.21256109928578293,-2.58033823787014,-2.288621862547166,-0.7247874432198858,2.343343088932815,11.180910131696207,32.762811142148564,-133.42231557375086,-95.04956312287241,-20.48236351343077,,,,,,,
4781.583278974184,1449.7565754689322,3477.534165809051,-0.6203147761862472,13.70868987454017,101.124109430814,-1666.6350233657668,0.0001558289098743496,-0.004958556312715946,0.0,0.0,0.0,0.0,0.0,-0.025323405195204082,-0.061419527031304294,-0.03515328031907165,0.00019687233301794762,-0.41528884431852314,0.252967012147213,0.1271600295189909,-0.7988346383282596,-1.5742971818910119,-0.9857091810854154,0.004918644084261146,-10.330046095369287,6.307913425300203,3.248756237975379,0.021587064467157135,0.004235855808083311,0.0061450411758270235,-0.0002491575485734643,0.017689698973769503,-0.011980133279392907,-0.006456013198445638,0.05059834530424891,0.20251804862288086,0.16976163356218227,-0.0005980124870178692,1.223464742478332,-0.7677737238591644,-0.38816677537234057,-18.30840747162136,2.710626696914692,-10.54419826662959,-0.02707599712501867,63.10325706227927,-38.603326037750605,-11.140763041073454,0.22472404370991542,-2.169706544049391,-2.132116322208409,-0.475996530547198,1.484967703340947,-1.372161982969698,0.06507566293224733,0.05410656977472475,0.6561317781361307,-3.4512981777310054,-2.364926797105013,-0.8277085329580125,7.25067760805221,13.504862731300351,43.338290757496246,-131.25401053241643,-29.205860989927466,-12.08590977765183,0.001354392762807103,0.004246119188047719,0.0048896973653510395,-0.06932887759750286,-0.055592921938060855,-0.02023400790162438,0.09676781432324219,0.28652656283311956,0.6326423631908239,-3.895605597378187,-2.6634974694561873,-0.8562074460093765,5.4102744076668365,12.633308166354395,39.372156707765974,-132.0671924180075,-53.899298875315054,-15.234841293734465,,,,,,,
-921.9533167584025,596.2956678122566,-392.35076535543243,-1.3519503619690632,4172.038848990267,-400.788600212487,217.25838005076986,0.00018698115711920506,-0.0049574793395848,0.0,0.0,0.0,0.0,0.0,0.039247379489724954,-0.0661043658783777,0.0029586148819769204,0.00035509087596358733,-0.7229535630161988,0.5446322823916436,0.2411620287100666,0.49338576590834793,-1.6686849117252593,-0.22319837462902736,0.00808757596040856,-16.49253421682108,12.148527220225887,5.531935660602633,0.0211541865972536,0.005930685424275213,0.00724406599820096,-0.0008477761034912934,0.032093831719342276,-0.02305723428853497,-0.01153514313415859,-0.04029038942544683,0.16999450090012044,0.10355472743142961,-0.0007335774220711495,1.437293428202098,-1.1137281242154218,-0.5213002437881521,-9.088872589981364,-3.2523795615492483,-6.620690613075265,-0.013556493505328037,21.38286857237659,-34.595440035625735,-13.313346841581152,0.22613164846731923,-2.1689831924924374,-2.124880265055582,-0.5105952190924247,1.461767344206521,-1.3792089717271028,0.14076047574037998,0.072335155695366,0.723605715282737,-3.459868854522667,-2.3200359134425934,-0.7046988757404713,7.568481280813263,1.8228585920641247,6.7473937146606335,-0.8570676791661771,4.489088366241993,12.300965721754114,0.0028086350125727673,0.0066608547067227766,0.009918780266543106,-0.1017533159713615,-0.07907780855243193,-0.026801313077716465,0.16758015058668466,0.32916136422998754,0.7737716085647788,-4.200402860773116,-2.750427149826172,-0.7953640136757743,6.747731723901212,5.933989831852755,19.154341400780428,-50.75527395481292,-17.715568450299365,1.829309047697791,,,,,,,
-663.4421532792907,150.46589741334978,-289.6673652479078,-1.7565458435085775,2495.728716807617,-3760.3008830091376,-1286.2804301449503,0.00021812602266814047,-0.004956206653657893,0.0,0.0,0.0,0.0,0.0,0.09873901816101892,-0.030944474499172564,0.054869962537244174,0.0003993777521373045,-0.8298411398249528,0.6692116424848147,0.29491981813001245,1.4856567043108309,-1.0831402320946775,0.6423267493467245,0.008829502878344234,-18.281854277079017,14.2310315493648,6.4306277468753255,0.02047934261723211,0.007151500831589162,0.007970902064009758,-0.0017766518408365295,0.04612580832692546,-0.03383443550374373,-0.016663256049484473,-0.0648348901291593,0.12242386768972206,0.06631455782546775,-0.0006934877727735721,1.4015492422451021,-1.0836524362707654,-0.5258056691894686,-2.4544490316458942,-4.757088104275787,-3.724016960596187,0.004008964929757739,-3.57441859569958,3.0075687944656426,-0.45054254013164874,0.22819221448383545,-2.1681246935713205,-2.1172039965922576,-0.5450918123784659,1.4390902857244063,-1.3851674744325997,0.2060566016516206,0.08584989211169272,0.7676268463324336,-3.449659328604124,-2.267705848211466,-0.5958502705497006,6.529612591124064,1.3514736416326716,4.402113104969664,1.020952591854303,5.2330065231127385,10.884860519077066,0.00480303931502644,0.00985453478436998,0.017343794137901162,-0.141836289218743,-0.10549159349076079,-0.03388364982921657,0.23347938627392575,0.35534697585938324,0.8585833524768702,-4.333357063763276,-2.761550985843978,-0.7115544389906131,6.612871145704037,3.100672207935695,10.033206485475054,-18.742622152801694,-3.526725636232241,7.428253495052755,,,,,,,
-85.20314484962314,-62.42452372470035,-66.40948356970537,0.03312126310298915,4.060349949417397,21.304176772425354,-4.729651704679094,0.00024926227697519244,-0.004954738305178683,0.0,0.0,0.0,0.0,0.0,0.13971413131132734,0.028198715786221393,0.10637141936463783,0.00034452595127585777,-0.7536602964424999,0.6380285619120151,0.29040859862507173,2.048966583410484,-0.27179734919781584,1.3496563498533223,0.00808073726582074,-17.244683910842564,13.809782261076368,6.37166716653403,0.019646994088538983,0.007960670875866159,0.008391248955824437,-0.003012210178648278,0.05978085133030607,-0.04432541849743198,-0.021834151421980846,-0.08085905453537896,0.08109519123275888,0.035715336576476416,-0.0006567102497862937,1.3653990212931646,-1.0557071660033515,-0.5298381294203172,-1.6024152462004764,-4.1328924219166066,-3.059922124899133,0.0036777522987278474,-3.615022095193754,2.794527026741389,-0.4032460230848578,0.23077192472978125,-2.167186985262486,-2.1092850114348574,-0.5792942341152351,1.4169845623156663,-1.390224282494291,0.25797102459458093,0.09377083088346398,0.7918985157400038,-3.4202421736769137,-2.2105723408740134,-0.5056808061691328,5.191442294296032,0.7920938771771255,2.4271669407570142,2.9417154927210016,5.7133507337452265,9.016946438056786,0.0073565781804430155,0.01338130089781307,0.02583252088685184,-0.18439994383481217,-0.13255603692686502,-0.04050271552797269,0.2896083022651869,0.37011277873870535,0.9054066963875731,-4.3682333064081895,-2.731814022194565,-0.6260954005716,5.734325907349138,1.6738048006446398,5.332127132729431,-5.340142270334772,2.184305970336153,8.41017996917889,,,,,,,
-70.50437885086191,-76.53604403759134,-63.67981771502866,0.04174128973899287,3.3340882195243005,15.874969135043493,3.370859366309542,0.0002803886908343549,-0.004953074352115056,0.0,0.0,0.0,0.0,0.0,0.15807105146751815,0.09381900379540335,0.14808184495244509,0.00022499601734211945,-0.5497790550735979,0.4964402299149991,0.24373729906561892,2.2543993880360973,0.4578487620500775,1.8143280265724704,0.00675561710431734,-14.986097222659442,12.242419838740258,5.855823582309497,0.01872721468748373,0.008434519494313668,0.008568027127803218,-0.004531975847401948,0.0730559194416437,-0.05453809390125755,-0.027050285946852784,-0.08983275613036673,0.047419623707354336,0.011484097098987952,-0.0006241068557729145,1.3289153915192746,-1.029349392649442,-0.5342076755877967,-0.8973688094283058,-3.367581520766957,-2.4231239477488464,0.0032603394013379187,-3.648362977388997,2.635777335390954,-0.4369546167479532,0.23375309338303474,-2.166228891620494,-2.101278237438894,-0.613033666587219,1.395480713788734,-1.3945383760669063,0.29811686532534754,0.09580936419919334,0.800677399596308,-3.3739432471983983,-2.1503848526932314,-0.431409357261544,4.014584073076659,0.20385333157293611,0.8778883856304179,4.629892647851534,6.018748818078185,7.427144890758881,0.010410204339196689,0.017055708006893842,0.0348186276581182,-0.22760041526786706,-0.15947694937842422,-0.046416998214942974,0.334986044886888,0.37662328669467,0.9277365328689727,-4.352265818929185,-2.6832919063307092,-0.5488333033102039,4.671457457666465,0.7653166730054387,2.579231472871037,0.8217335098503922,4.554143258559414,7.8026254229315635,,,,,,,
-54.373419177775325,-67.00705936610677,-58.87091323168316,0.0363825443133541,1.7164670902958257,13.471962461615306,-1.7150696529355525,0.00031150403542810543,-0.00495121486015703,0.0,0.0,0.0,0.0,0.0,0.15511478485360758,0.15532079607791788,0.17601402645204497,6.863985886975782e-05,-0.2656800892859692,0.28490233594707826,0.16942449384850117,2.229775056982385,1.0039532830644233,2.0634062619290283,0.005371889354306611,-12.473275057571048,10.372262667553949,5.199534796903343,0.017774157856725314,0.008639786914343115,0.008559434626206688,-0.006314384478102175,0.08594951081572741,-0.06447910682188394,-0.03230944151152457,-0.09336908776880012,0.020444266812754762,-0.006860051055332196,-0.0005951417161908707,1.292260115036355,-1.004338815541694,-0.5384057147899827,-0.35363165817718484,-2.6975604487148703,-1.8344148154320148,0.0028965139582043777,-3.665527648291955,2.501057710774801,-0.4198039202185977,0.23702425032381927,-2.165318251986828,-2.093286895487399,-0.6461701478178472,1.3745950292884812,-1.3982540778997525,0.32711569407845403,0.09106396336662258,0.7991341951495095,-3.313648123062813,-2.0885684500252806,-0.37157018328461405,2.8998828753106496,-0.4745400832570759,-0.15432044467985212,6.029512413558556,6.181640266795103,5.983917397692994,0.013863540302555927,0.020769156581584784,0.04402421343047292,-0.27069954830844895,-0.1859626444017423,-0.05164875862699884,0.3694269044704062,0.3756865534508509,0.9345904198909742,-4.307968267593645,-2.626474948215323,-0.48340731111887847,3.576562717006083,-0.0009579479585103412,0.8898012633516694,4.040322097077557,5.559993044679153,6.678600574379862,,,,,,,
-35.06672076168754,-61.443297038224195,-54.6751413649577,0.03382524538980518,0.8130509627779503,12.187632916526026,-5.181607212072503,0.00034260708237591765,-0.004949159902714161,0.0,0.0,0.0,0.0,0.0,0.1337336482632742,0.20709378432155193,0.18857303581109996,-0.00010788675328207291,0.07011024848266384,0.028568310107481676,0.07632654209082357,2.082129946569346,1.3667752239728679,2.1528023983402758,0.0041407838925620905,-10.132807500046006,8.586428598281003,4.551597250969595,0.01682278744285448,0.008637658598859772,0.00841962405155873,-0.00833870016585403,0.0984610033947175,-0.07415481728807842,-0.03760633492723579,-0.0933987161807637,-0.0003872554978795288,-0.019736685073156575,-0.0005695591011478074,1.2555235334571577,-0.9805470017255985,-0.5420855932709614,-0.0029611799939606546,-2.083176980369298,-1.2876634017824378,0.002558261504306326,-3.6736581579197347,2.379181381609541,-0.36798784809787266,0.24047779967206928,-2.164517853688422,-2.085376901440222,-0.6785933129464711,1.3543307272936367,-1.401504648292512,0.3453549348250022,0.08003982984056532,0.7909994047176764,-3.242316512862382,-2.0264301994844436,-0.3250570392759356,1.8239240746548169,-1.1024133526057263,-0.8134790431833047,7.133161020043088,6.213825054083709,4.651314400867843,0.017609250982779816,0.02444591747118473,0.0532908086891001,-0.31335241901062727,-0.21190187195897542,-0.05629625033260842,0.3930698376465161,0.3680584001843679,0.9317071414796094,-4.2461724224220285,-2.566352576472345,-0.4306436881559842,2.4933722588727525,-0.681694955315975,-0.16288405978485287,5.951802038775769,5.964083526707458,5.425668574599306,,,,,,,
-20.679370419380284,-57.984538444577645,-46.584697698503476,0.03199700351181082,-0.2086931447120577,10.738924190911714,-7.897918694842465,0.0003736966037827551,-0.004946909560912653,0.0,0.0,0.0,0.0,0.0,0.09652102745993807,0.2456142534719736,0.18493082025614677,-0.0002955469793862586,0.4429779587336679,-0.25912160026693404,-0.031198270615745455,1.880841578030858,1.5785932059868824,2.1348559728671286,0.003117880042055358,-8.101811808300553,7.020219644383733,3.966879286861535,0.015893736006766357,0.008485893920299198,0.008194820419835686,-0.010584939848338304,0.11059075633270607,-0.08357113637469944,-0.042933258155133366,-0.09136037329019372,-0.015420818878418117,-0.027954849321130605,-0.0005471761864559253,1.2188078211924316,-0.9578290803285943,-0.5449756798824559,0.20383610573005573,-1.5033810764336242,-0.821816424797403,0.0022382914691882177,-3.671571226472614,2.2717921397004237,-0.289008661149448,0.2440173953192591,-2.1638714000542927,-2.0775916368532967,-0.710224696362363,1.334680931837095,-1.4044060536454315,0.35395956471897994,0.06464536341297263,0.7785264586925229,-3.163138341589192,-1.9649795456541714,-0.2901405352919592,0.8604629893977764,-1.5394466427592688,-1.247294602515351,7.917817127318984,6.145065383027218,3.4916503983976366,0.021546474150675517,0.028030356901022385,0.06252127691484922,-0.3553743085268826,-0.23725409919574836,-0.06047133335928763,0.4067160718670694,0.35531224049333504,0.922582310984336,-4.173064319071044,-2.5054607037862002,-0.3897559066570304,1.4841788016321407,-1.2118146668558525,-0.8330866516522089,7.166866219795498,6.07593646838124,4.230379573493506,,,,,,,
-11.67113039867801,-51.684875148129684,-34.87425270495566,0.02847596923353352,-1.3837986140075031,9.06974039658448,-9.888969787572588,0.0004047713722875461,-0.004944463923592146,0.0,0.0,0.0,0.0,0.0,0.04534665140524045,0.2681501253406918,0.16464249859897104,-0.0004894553017094143,0.8460465532496193,-0.5714710628618996,-0.1515109653049881,1.6651743592649833,1.6764486682562914,2.0508203374594207,0.0022940678444505003,-6.391103702884854,5.695384211488012,3.457257112135107,0.01499863256064038,0.00823599157670965,0.007919693903625208,-0.01303381574664575,0.12234018833118204,-0.09273339301294663,-0.04828067327307604,-0.08815487999021851,-0.025286389433472365,-0.03268558829860907,-0.0005276408686873964,1.1822304887891062,-0.9360181329712485,-0.5468768695151931,0.32055130206952154,-0.9865817819824572,-0.4730738977478464,0.0019535317768528825,-3.657733240332539,2.181094735734579,-0.19011896327372213,0.2475681880859227,-2.163401335238447,-2.069960507903703,-0.7410160730367426,1.3156334794603148,-1.4070480527816966,0.35507927666636224,0.04700648158453424,0.7631128949593772,-3.0791376674379567,-1.9047452376780134,-0.2641999136265129,0.1119711947382287,-1.763888182843838,-1.5413563733145708,8.400067415123525,6.023430797615813,2.594062166544631,0.025588758329864122,0.031483024000509376,0.0716543023777319,-0.3966575604147224,-0.2620087007822413,-0.06427552998134863,0.4120747380971928,0.33937879622640565,0.9093566982251486,-4.092873187631972,-2.4450641979495717,-0.3587604560828518,0.6361078574979555,-1.5530148654141507,-1.2708214146240442,7.929026476578057,6.043486179113986,3.219079795498892,,,,,,,
-6.22044012369663,-40.491961349816975,-23.59743261304982,0.022549591370544294,-2.5701772669672884,7.380504878471417,-11.107865730153321,0.00043583016111163896,-0.004941823087302215,0.0,0.0,0.0,0.0,0.0,-0.0185133711031596,0.2726478660072783,0.1275323563700272,-0.0006869366561477137,1.2761695698358997,-0.9052091198401028,-0.2844643249310913,1.4552295818797087,1.6939487790339889,1.9302007742867466,0.0016385357165529188,-4.965526177324222,4.590109896079249,3.0177034254964594,0.01414362710055539,0.007928298108378291,0.007617766010214758,-0.015666700856463045,0.13371172558168615,-0.10164637091640277,-0.05363787887886246,-0.08432730220086958,-0.031103258298310614,-0.03505658401478255,-0.000510360510055922,1.1459101741124775,-0.9149452361017498,-0.547667272574915,0.3827599063279822,-0.5817116000819654,-0.23709957161734824,0.0017280358631474395,-3.632031467662866,2.1072896869498647,-0.07904030597218892,0.2510791123042549,-2.163113933359472,-2.0625033992472077,-0.7709436374172443,1.297174919312257,-1.4094933115129717,0.3510924218332189,0.02874018789752573,0.7457108656495278,-2.9927564380501672,-1.8458560148057797,-0.2445258731275176,-0.3986854833143314,-1.8266293687008512,-1.7402029309849305,8.638122938778945,5.888922287223368,1.9674040498995296,0.029666652925903054,0.03477942050468409,0.0806504633934067,-0.4371386811388011,-0.28616831991469005,-0.06779248634263799,0.4112851671582401,0.32195791119257694,0.8934049545939,-4.008682910397241,-2.3856974066366896,-0.3352190127466751,-0.0034295988359560603,-1.722117928360693,-1.5609151455983432,8.367272191780815,5.947960440435381,2.445501641365139,,,,,,,
-2.893436561634821,-28.134937935879456,-15.112360408952169,0.016191946712297782,-3.539135932515425,5.996143292305023,-11.63315808948795,0.00046687174410723183,-0.004938987156298552,0.0,0.0,0.0,0.0,0.0,-0.09414234042633324,0.25777718426023727,0.07359541701357417,-0.0008864894593580909,1.731738197929013,-1.2586162802290541,-0.43068952182132636,1.260124927959454,1.6583488574104452,1.7924637268634953,0.0011173563308774588,-3.7786215678062707,3.67021696230426,2.6379906922094545,0.01333150626266677,0.00759083831822824,0.0073041652580577154,-0.018465615200045638,0.14470860793621923,-0.11031452087758004,-0.05899366796544431,-0.08021033717248442,-0.03410712755024385,-0.03591634369006082,-0.0004946993460956774,1.1099437730291004,-0.8944719535614817,-0.5472943598256881,0.4116987854687054,-0.3004116249369223,-0.08597596752782655,0.0015661163960244617,-3.596640108337712,2.0473282540268145,0.037291274922690576,0.25451810256636115,-2.1630051748679353,-2.055233384575071,-0.8000009789608238,1.2792923526186364,-1.4117832416080625,0.3438990262106241,0.010875849153687119,0.7270014672136336,-2.9057341543579485,-1.7882566693620685,-0.2289930095090741,-0.7193395622594803,-1.7864338743838613,-1.8709398435894289,8.702228369221876,5.759934544371114,1.5532863618443509,0.033727700087296496,0.037908255110092715,0.0894841075063711,-0.4767829888433437,-0.3097414568078496,-0.07108674995261599,0.4063039483885367,0.30429231007544194,0.8756535389990894,-3.9226956483422746,-2.3275170572172432,-0.31692918513835583,-0.44588628915473083,-1.7618673690250592,-1.7525209463253597,8.574286494199072,5.831754045892438,1.8940822732915186,,,,,,,
-0.8417099995776389,-18.19235184312734,-9.409170269664216,0.011127439644383931,-4.259007589246799,4.94993712399916,-11.6927771426234,0.0004978948958057798,-0.00493595624253886,0.0,0.0,0.0,0.0,0.0,-0.18078780203968337,0.222804695529767,0.0029475138160659636,-0.0010871677645568876,2.211545332509289,-1.6305322763499763,-0.5912051955852208,1.083060888797966,1.5898387028912881,1.649595004259756,0.0007005763836171951,-2.786009161393333,2.9016440823779637,2.3074065770776873,0.012562977616551785,0.007241720285273458,0.006988377002052515,-0.021413219408684125,0.15533471733227713,-0.11874212336588615,-0.06433679129173589,-0.0760091544571207,-0.03529225551495513,-0.03583518633837266,-0.0004801509260998712,1.074403272704648,-0.8744936647336135,-0.5457521693621988,0.4201207093135512,-0.11853748138508002,0.008115735168815613,0.0014548419995806224,-3.554050032445244,1.997828882786823,0.15421904634892458,0.2578660981306778,-2.1630651215467918,-2.048158643705332,-0.828193063026778,1.2619738677877055,-1.413944639934473,0.33479955643166237,-0.005994667885643089,0.7074740869739327,-2.819208406595422,-1.7318484830930887,-0.21613983264106537,-0.9099469778961734,-1.6870517039330206,-1.9527380239700878,8.652574776252644,5.640818626897978,1.2853176868008735,0.037734981137677565,0.04086847991330779,0.09813857889236462,-0.5155755855154766,-0.3327388083199469,-0.07420523662659029,0.398638478608759,0.28719060417162956,0.8567448521676964,-3.8364118202232875,-2.2705188589146545,-0.30219485686556335,-0.7326915676432542,-1.7156287451066659,-1.8762619054395429,8.62267131342963,5.713749467296168,1.517845067688268,,,,,,,
0.41670066254606564,-11.33018226757404,-5.732979969295462,0.007622028632585983,-4.815670901443525,4.112098521794616,-11.487862204554444,0.0005288983914663739,-0.004932730465678423,0.0,0.0,0.0,0.0,0.0,-0.27772655729646656,0.16743739970185695,-0.08417692451416192,-0.0012882188486542459,2.7141918531746807,-2.019848032822942,-0.7671997663885693,0.9242174645997547,1.5023747219502808,1.5084875964001818,0.00036401281197898935,-1.94963350121929,2.254668267803262,2.0163928289300013,0.011837476164618943,0.006892207541215368,0.00667624671487238,-0.024492807920003412,0.16559448899925922,-0.12693333407916255,-0.06965621468866276,-0.07184959201868579,-0.0353448588469094,-0.03518073098975496,-0.0004663647089673236,1.0393443394703399,-0.8549265857579247,-0.5430611926782541,0.4159588366714171,-0.005285002305214741,0.06544553486177024,0.0013786217132547626,-3.5058933234308087,1.9567078975688768,0.269097668394469,0.26111241415777703,-2.1632807549825785,-2.0412838533318434,-0.8555318655344617,1.2452084644884542,-1.4159947190735775,0.324631602709923,-0.021563343578688457,0.6874790373488755,-2.7338802507683737,-1.6765403299251174,-0.20500791391044204,-1.016795372173939,-1.5568675693045368,-1.9995049625057175,8.532815582704814,5.530815316797131,1.1131918730623336,0.041664245453575846,0.043666052320363406,0.10660332762350971,-0.5535150493851511,-0.3551715002806071,-0.07718047129650626,0.3893484477527709,0.27113133291383806,0.8371306418560099,-3.7508059968699192,-2.214645412107215,-0.28981249978601237,-0.9082773751766976,-1.6175089423668718,-1.9524303035840223,8.567137417757632,5.600689944584466,1.267755639752753,,,,,,,
1.170131443421485,-6.873917826809294,-3.3960035586875352,0.005316486010445215,-5.27055847375113,3.398234676248446,-11.126657292827025,0.0005598810071240923,-0.004929309953065388,0.0,0.0,0.0,0.0,0.0,-0.3841768180334585,0.09172287189266617,-0.18740288901136523,-0.0014888839302004155,3.2377626877051746,-2.425243402068333,-0.9598941538731964,0.7823456946724141,1.4051158040499196,1.3727643879849114,8.892919847333875e-05,-1.2383614995930754,1.7047550872727832,1.7569344088235614,0.011153680084507234,0.006549119333089831,0.006371303172794621,-0.027688302057345626,0.17549286253134355,-0.13489218166761,-0.07494126167412896,-0.06780698983492789,-0.03471056366760649,-0.0341866752852685,-0.0004531101404358205,1.004812462083407,-0.8356993302498608,-0.5392575502650268,0.40426296615210494,0.06340486559855979,0.09940557044864559,0.0013254568531503104,-3.4531877386932974,1.9227255508063923,0.38036424132273927,0.2642516487612699,-2.1636377234918607,-2.0346111833830913,-0.882033441502574,1.2289858639865041,-1.417944483833362,0.31392346034928703,-0.03569685092820424,0.6672669948752038,-2.6501575968112285,-1.6222600501950095,-0.19497647597843001,-1.0708142360635966,-1.413350734951578,-2.02120424736717,8.37226539571451,5.4280279730107885,1.0031437932012017,0.04550059630416728,0.04631121107743782,0.11487205356567007,-0.5906088037754595,-0.3770503697360897,-0.08003428841115093,0.3791425705656862,0.2563669437020799,0.8171311219856515,-3.666481156864405,-2.1598315789748517,-0.27896336847474645,-1.0087306796295417,-1.4913322311019355,-1.9949349383823933,8.446699884678532,5.493978977587337,1.1042165247579787,,,,,,,
1.6002177335250334,-4.040669143755421,-1.9179050902739385,0.0038198378914480226,-5.651064539070605,2.7760417756728106,-10.66202582182263,0.000590841519638319,-0.004925694839735738,0.0,0.0,0.0,0.0,0.0,-0.4992414456063351,-0.003995585444452707,-0.30618430218389237,-0.0016882916758132346,3.7796383881837787,-2.8450442066469264,-1.170436036719445,0.6556197905729242,1.3038097851079897,1.2440368539920457,-0.00013891864510387852,-0.6272836358710678,1.2321732212019771,1.5224856772660245,0.010509841236857276,0.006216450100626714,0.006075606962894983,-0.030984244216021084,0.1850352412283071,-0.1426225621051651,-0.08018170275365215,-0.06392435343660596,-0.03367269450330168,-0.03300082907175465,-0.00044023755569346217,0.970845691150381,-0.8167496789193641,-0.5343877052696171,0.38826654244841713,0.10376228185004102,0.11858462135138498,0.0012872584742358302,-3.3966770933025914,1.8949651330496642,0.48698449954096557,0.2672817080429448,-2.164121386367801,-2.0281410055642826,-0.9077160231274346,1.213296325782841,-1.41980092466882,0.3030059281674934,-0.048366287594024705,0.6470177818808927,-2.568258162486055,-1.5689538203663018,-0.1856440835458009,-1.091753218179363,-1.2669436665820468,-2.0249212994311163,8.189943432517365,5.330622982870765,0.9332392432629124,0.049235599178778074,0.048816493323920705,0.12294145588760293,-0.6268697936406307,-0.39838576527619807,-0.08278103949782846,0.36848159187403207,0.2430041089496612,0.7969745718479334,-3.583788302281692,-2.1060205518788986,-0.2691026277276918,-1.0600414302856316,-1.3526524715418402,-2.013467528709431,8.288015670412088,5.393019420586444,0.9985467534899651,,,,,,,
1.8239007393259399,-2.2527036216375693,-0.9861417132305678,0.0028485024646137096,-5.970002839715827,2.233305359964355,-10.12404741391637,0.0006217787067410332,-0.004921885268407954,0.0,0.0,0.0,0.0,0.0,-0.621870945243905,-0.11908929334687672,-0.43977178424241226,-0.001885401492323118,4.336378882681472,-3.2771376370995924,-1.399802588863489,0.5420813911687052,1.201894180062064,1.1227295246912783,-0.00033027409285373493,-0.09668620889290108,0.821253576074822,1.307756609220661,0.00990399581711121,0.005896412597307434,0.005790290250032776,-0.0343657934581838,0.19422745096858518,-0.15012823994783736,-0.08536781682049645,-0.06022404802825906,-0.032410047544696605,-0.03171636868691775,-0.00042764982119756524,0.9374759205013267,-0.7980233581248639,-0.5285054555328158,0.3700335981762365,0.12624008000388914,0.12844603848369066,0.001258773449589693,-3.336977064905433,1.8726320794500206,0.5882249736801293,0.27020255980383756,-2.1647174202190045,-2.0218723971981083,-0.9325988093071081,1.1981304972417042,-1.4215684396944952,0.2920851760892742,-0.05960338512035914,0.6268608366174231,-2.488278617967355,-1.5165828541136812,-0.17675150256753566,-1.0920752078219198,-1.1237097526334436,-2.015694526346951,7.99795445187002,5.237096625262058,0.8892580978265228,0.05286510325691966,0.051195409515588285,0.13081036765382062,-0.662314190504636,-0.41918756250839584,-0.08543001860572655,0.35765982957355874,0.2310595397916843,0.776824508382932,-3.5029124196547667,-2.0531677578793883,-0.25987232636281243,-1.0798393935911106,-1.211158089779637,-2.0148438889422837,8.108747978534877,5.29665383345508,0.9310026497051737,,,,,,,
1.9170224682860115,-1.1295922973479644,-0.4013675184705301,0.002216974727732319,-6.2349873954614665,1.7637371532086554,-9.533152232943376,0.0006526913470850609,-0.004917881389477392,0.0,0.0,0.0,0.0,0.0,-0.750839778402435,-0.2526357759551948,-0.5871814958887935,-0.002078974645551799,4.903652778450446,-3.7189189155007516,-1.6487020393448066,0.43986207966886237,1.1012952176149902,1.00860435782796,-0.0004932182634762513,0.3689395651428246,0.4596332238613404,1.1084851609842943,0.009334097162975397,0.0055901014203227125,0.005515899664152876,-0.03781872233323058,0.20307569792849287,-0.15741285572794847,-0.0904904348641408,-0.05671538268907463,-0.03103493354326433,-0.030391771550233787,-0.00041528378417444154,0.9047296485918185,-0.7794734110456846,-0.5216698905727202,0.3508697458646098,0.13748680398222107,0.13245971366839596,0.00123660370231237,-3.2746271909508184,1.854994707917934,0.683556496009563,0.2730154478005745,-2.165412155913601,-2.0158035010773725,-0.9567012086771952,1.1834792969621504,-1.423249764671151,0.2812887996736939,-0.06947356945967464,0.6068896120735625,-2.4102399370087104,-1.465120027955385,-0.1681324976655921,-1.0796376415580287,-0.987018433931551,-1.9971224543860608,7.803868095864431,5.146282615829607,0.8619004901943557,0.05638772413011435,0.05346160838593567,0.13847914833040353,-0.6969598603765165,-0.4394652497692892,-0.0879871742824238,0.34686282971000304,0.2204967259283126,0.7567985216028404,-3.4239316081872246,-2.0012402591735166,-0.25103978407645494,-1.0797147039773665,-1.0726321642388157,-2.003891440057131,7.920321848558461,5.20371931003283,0.8882951664314713,,,,,,,
1.9288474839944392,-0.4286524547603143,-0.03703052230449866,0.0018069693794920717,-6.4515594101466345,1.362749821373077,-8.904779922981332,0.0006835782202922924,-0.004913683361010334,0.0,0.0,0.0,0.0,0.0,-0.8847331408319453,-0.40340160308113815,-0.7471670554281384,-0.002267563608083386,5.47620471441802,-4.167259245947381,-1.9174716866788526,0.34728679004171453,1.0029823318525013,0.9010884132210479,-0.0006338248297306389,0.7817373184859597,0.13759855986741143,0.9212398736714057,0.008798098013890088,0.005297914352860821,0.005252614214045395,-0.04132941459914696,0.2115865259846529,-0.16447993715343037,-0.09554097087043503,-0.05339953682936967,-0.029617446082877065,-0.029063471361319378,-0.00040309844408926705,0.872628532623325,-0.7610597389486425,-0.5139438476203264,0.33158795239448313,0.14172417054434838,0.13283001889144094,0.0012185340085174492,-3.210111596849352,1.8413672097042033,0.7726042952393763,0.27572239542707744,-2.1661927511327472,-2.0099317844133955,-0.9800423774389135,1.1693338264997046,-1.4248465888514301,0.27069476265029224,-0.07805952191463725,0.5871716663977007,-2.3341168761718336,-1.4145470462445713,-0.15968241802791489,-1.059403702340166,-0.8585952454962605,-1.9717945675861777,7.612306083687691,5.0572981710813725,0.8450079637677215,0.05980383119646531,0.05562837695486671,0.14594925328730238,-0.7308253695344852,-0.45922802394523726,-0.09045627854530151,0.3362060282434022,0.2112493630580045,0.73698139114205,-3.3468567263459486,-1.950214811285848,-0.24245593963380307,-1.0671618146200217,-0.9403500736086172,-1.984054481937511,7.729957636797529,5.113226069489358,0.8615422039073689,,,,,,,
1.891306881894872,0.0039828566594790615,0.18720658925830413,0.0015431701765489681,-6.624263045599266,1.0262636946811732,-8.251257360818443,0.0007144381070018599,-0.004909291348737757,0.0,0.0,0.0,0.0,0.0,-1.0219437025279356,-0.5698235234459588,-0.9181969566250391,-0.00244951641516054,6.0478630810147695,-4.618493849144582,-2.2059745221728675,0.26291412074704046,0.9073440572872948,0.7994760954971599,-0.0007566534501299849,1.1511594818713429,-0.15244883298091327,0.743263430009459,0.008294000049851147,0.005019820126806263,0.005000383869987093,-0.04488486350073695,0.21976677460149688,-0.17133291225190914,-0.10051144274389369,-0.05027275330025705,-0.028200848274875307,-0.0277538918313308,-0.00039106742102174746,0.8411898429593914,-0.7427486932210686,-0.5053926789318508,0.3126818736801674,0.14163522694262273,0.1309579529988579,0.0012031023067519595,-3.1438689663933594,1.8311045727573916,0.8551168688475608,0.2783258916228693,-2.167047263532675,-2.004254227090537,-1.002640947868627,1.1556853043743949,-1.426359968435938,0.2603496195791839,-0.0854512399927908,0.5677557322858559,-2.259857042971339,-1.3648522125309748,-0.15133795845078932,-1.0345143071108316,-0.7391718078153557,-1.9415934111844866,7.425983320049434,4.96948337135966,0.8344459577125556,0.06311488740336522,0.05770835883522474,0.15322292608678123,-0.7639293566738659,-0.4784848751751132,-0.09283971457861165,0.3257599988280533,0.20323596996313387,0.7174342451084493,-3.2716575608686758,-1.9000757882165553,-0.23402774805292595,-1.0469845453313749,-0.8160150675506213,-1.9578120970134278,7.54209117734018,5.024388196410588,0.8447958027914393,,,,,,,
1.824985600948692,0.2660124350060966,0.322401176801948,0.0013773151591472575,-6.757086935001988,0.750339273095646,-7.582716740343054,0.0007452697889182773,-0.004904705526048786,0.0,0.0,0.0,0.0,0.0,-1.1606791830566505,-0.7499937710936928,-1.0984406211747402,-0.002622995777862677,6.611594974989217,-5.0684333097747265,-2.513499849342616,0.1855438255370228,0.8144396747659626,0.7030524433364603,-0.0008651162340886869,1.4844960746262506,-0.4164138288689885,0.5723550301083898,0.007819882377350651,0.004755528650865039,0.0047590177305558146,-0.04847267027898361,0.22762353776636093,-0.1779751232202194,-0.10539448512800206,-0.047328396887663646,-0.026811342637893948,-0.026476552419022414,-0.0003791741294701426,0.810426861988958,-0.7245126814208043,-0.4960832385693409,0.2944393162341714,0.13892603244675342,0.12773394123083842,0.001189329155160487,-3.0762980970433396,1.8236011800264351,0.9309440362509913,0.28082869191049886,-2.1679646646663664,-1.9987674602693897,-1.0245148795672416,1.1425250170849552,-1.4277906080117473,0.25028002876295474,-0.09174011336916181,0.5486766821147397,-2.1873931698614717,-1.3160287289439605,-0.14306395758091614,-1.0069590816229164,-0.6288873376371001,-1.9079050171116076,7.24638731098673,4.882348358701421,0.8274000869873186,0.06632302415924712,0.05971341043385888,0.16030297643164884,-0.7962901491466414,-0.49724465528377393,-0.09513900656918635,0.31556672252791906,0.19636884010496433,0.6982009735803265,-3.1982799125663726,-1.8508133773958977,-0.22569999146537315,-1.022247448344072,-0.7003637702264548,-1.9269678253548461,7.359336137328992,4.936602748949804,0.834044659165859,,,,,,,
1.7430418333085784,0.41965384585659904,0.4010398091228856,0.00127811987082763,-6.8536747839587076,0.531052210860361,-6.9076193789074924,0.0007760720488595341,-0.004899926073983847,0.0,0.0,0.0,0.0,0.0,-1.298982232209942,-0.9416550604809304,-1.2857667350528073,-0.0027860137759931664,7.15961633552498,-5.512403313825987,-2.838675744024719,0.11420756916279534,0.7241662460949032,0.6111667949215831,-0.0009617493955488279,1.7872880964055404,-0.6588371784076301,0.40678507959636856,0.007373916593094942,0.004504599113430607,0.004528240112836958,-0.05208104261602586,0.23516412434404177,-0.1844098401951527,-0.11018335547943686,-0.04455827013166738,-0.025464292854437267,-0.02523931698762632,-0.0003674086499056205,0.7803492484969204,-0.706329774841626,-0.4860830362689402,0.2770165046352997,0.13468047066890693,0.12372354313960957,0.0011765479564522106,-3.0077613492037525,1.8182906579178315,1.0000202300400662,0.28323369239634216,-2.168934819435569,-1.9934678699194146,-1.0456813892010923,1.1298442829199409,-1.4291390546054545,0.2405000485843277,-0.09701547692025302,0.5299590349974996,-2.1166509633850694,-1.2680734165014385,-0.1348446593707258,-0.977998017862705,-0.5275363551091201,-1.8717647117240137,7.074220647640224,4.795531244252206,0.8219298210190353,0.06943076957160849,0.06165454218872798,0.16719261813969807,-0.8279255394234543,-0.5155161307354819,-0.09735517777877836,0.305650004089626,0.19055941047192282,0.6793127394610864,-3.1266566507760434,-1.8024221300310281,-0.21744325634658734,-0.9948997963237616,-0.5935505534961546,-1.892850424846169,7.1831250739822625,4.849415764202598,0.8265572774229182,,,,,,,
1.6537864107351419,0.5046274850872834,0.4438113782818248,0.001225012787259088,-6.917431583092215,0.36445611269586564,-6.233086561792112,0.0008068436708051504,-0.004894953181227524,0.0,0.0,0.0,0.0,0.0,-1.4347640047631813,-1.142210471013064,-1.4777575845330335,-0.002936482821411098,7.683563534517491,-5.945317831564682,-3.1794029040914356,0.04815124826957552,0.6363682367249938,0.5232748873484518,-0.0010484161406576044,2.0636543313532556,-0.8831537121666196,0.2452346654088007,0.0069543733999839485,0.004266508416008445,0.00430772621666007,-0.05569879275464695,0.2423960200958489,-0.19064027446174386,-0.11487193443893554,-0.04195344440979507,-0.024168195810484704,-0.024046462694058406,-0.0003557656716198243,0.7509633781631921,-0.6881833138737172,-0.47545952531236035,0.2604865551325846,0.12958522126063807,0.11928542935679132,0.0011642978285796197,-2.9385870333728303,1.8146460967908729,1.0623510956579874,0.28554385011604316,-2.1699484463240974,-1.9883516753421302,-1.066156929966266,1.117634425361031,-1.4304058328965332,0.231015771970099,-0.10136268885287744,0.5116194577284418,-2.0475540765173688,-1.2209857558909836,-0.12667782910786268,-0.9484276614228694,-0.43472119326244235,-1.8339577269057865,6.909688686770045,4.708766061045495,0.8166830262863116,0.07244087544793405,0.06354191099259889,0.17389534941017007,-0.858852665525545,-0.5333080226490285,-0.09948899445104357,0.2960221206810794,0.18572138882471637,0.6607911737471682,-3.05671479900408,-1.7548998379358087,-0.20924591296968198,-0.96617843742524,-0.4953886104603195,-1.8564527358298317,7.014132092924135,4.762489467143925,0.820454654607043,,,,,,,
1.5623818347215712,0.5463296412014373,0.4638995104250254,0.001204398006402342,-6.95157611367736,0.24658190969417682,-5.565126169927437,0.000837583439944181,-0.004889787044101109,0.0,0.0,0.0,0.0,0.0,-1.5658521216611423,-1.348752717381417,-1.6717425631670786,-0.003072282537363688,8.174728586320942,-6.361789184453534,-3.5328201538468584,-0.013187046132380774,0.5509077253436023,0.43896026042152786,-0.0011264605720634434,2.316556018499186,-1.0918977785900834,0.08675251070779946,0.00655962400184662,0.0040406942380344524,0.004097124774567459,-0.0593153350665363,0.24932685152550715,-0.19666959080964064,-0.11945472133864583,-0.039504776187293277,-0.02292722122436004,-0.022899998351532995,-0.0003442431331346683,0.7222726654408316,-0.6700615110967779,-0.46427950173878774,0.2448709589479725,0.1240730009865439,0.11464643425254106,0.0011522538485155963,-2.8690712722360567,1.812180277693931,1.1180023573572617,0.28776213285603697,-2.1709970677658514,-1.983414989608859,-1.0859572021156996,1.1058867537117827,-1.4315915400137806,0.22182827399937993,-0.1048621441753838,0.4936685733271019,-1.9800272149433387,-1.1747671649248403,-0.11857071172474581,-0.9187497970719063,-0.3499455322506349,-1.795088440133988,6.752686157403015,4.621859096614327,0.8107117383116864,0.07535620752593095,0.06538484247304598,0.1804148631199225,-0.8890879581997074,-0.5506290365624428,-0.10154113335091244,0.2866880601515357,0.1817724896736089,0.6426506632437379,-2.9883800250585626,-1.7082466752256784,-0.20110868831947873,-0.9368659256466849,-0.40549984469832523,-1.8185275153941014,6.85254961855157,4.675575118306142,0.8144332011869674,,,,,,,
1.471958793170594,0.5610058480177982,0.46970838654195046,0.0012069667224543813,-6.959162508587413,0.17345505953336726,-4.908799008890297,0.0008682901427231748,-0.004884427866554849,0.0,0.0,0.0,0.0,0.0,-1.690052475114601,-1.558115958885137,-1.8648527791326388,-0.003191340699407259,8.624353944034974,-6.756275395623148,-3.8953112648385506,-0.07020155225149013,0.4677068453973227,0.3579413819040366,-0.0011968271457444323,2.5480186553124207,-1.2868708988195974,-0.06927725484900113,0.0061881383559353464,0.003826581871196649,0.003896072407120317,-0.06292068287839991,0.2559643516581142,-0.20250091887468236,-0.12392682554635441,-0.0372032200860401,-0.02174283620013289,-0.02180050484766178,-0.0003328412913217578,0.6942778689693297,-0.6519570538257919,-0.4526085982643261,0.2301599004122405,0.11841407127103262,0.10994935038712156,0.0011401841812910525,-2.7994796471501826,1.8104457270985974,1.1670903474461647,0.28989148773049245,-2.1720729563443237,-1.9786538666761553,-1.1050971824808564,1.0945925492401325,-1.4326969119237951,0.21293548744554963,-0.10758885784721853,0.47611229327037324,-1.9139980365156948,-1.1294204471650178,-0.11053719100145405,-0.8892786553830302,-0.2726713671834739,-1.7556280056728661,6.602917842764378,4.534671775982251,0.8033520723291767,0.07817967606205695,0.06719186983750634,0.18675497868066862,-0.9186471304103128,-0.5674878842485169,-0.10351229756738067,0.27764822084545765,0.17863531343295663,0.6249000130126267,-2.9215794420205135,-1.6624645421925102,-0.19304092502485387,-0.9074553751919191,-0.323407330920246,-1.7796534805106736,6.698268696443092,4.588492063621516,0.8075846869191354,,,,,,,
1.3843474251261367,0.5590420333444202,0.46659670851781354,0.0012263812658073418,-6.943087992700159,0.14111947521766588,-4.268347728781929,0.000898962566894085,-0.004878875860159899,0.0,0.0,0.0,0.0,0.0,-1.8052227003928663,-1.766951238350003,-2.0540967701501005,-0.003291724347465152,9.023975191855879,-7.123261049413585,-4.262560554603172,-0.12314500897454327,0.38676994170968065,0.28006827347258006,-0.0012601559727335658,2.7593250867887704,-1.469283119487177,-0.2231623400253198,0.005838481611724955,0.0036236006763350325,0.0037042026904969966,-0.0665054443987535,0.26231632781964126,-0.20813736338558,-0.12828395424556874,-0.03504001189857092,-0.020614843820419924,-0.020747671014642345,-0.000321562087635428,0.6669773812970979,-0.6338667085023277,-0.44051086001698625,0.21632526245359748,0.1127748342583543,0.10528338330194342,0.001127920368632979,-2.730048767223181,1.8090345323464208,1.209773824733984,0.2919348216864161,-2.173169080251651,-1.9740643384661207,-1.1235911652092272,1.0837430556171415,-1.4337228693329844,0.20433339559236463,-0.1096123907327084,0.45895282100346446,-1.849398272837073,-1.084949362299101,-0.10259574091893796,-0.8602091853185011,-0.20235328854898682,-1.7159472266908775,6.459976367862179,4.447108486591675,0.7941450082516099,0.08091419213939227,0.06897078108177368,0.19291958961029113,-0.9475451932175131,-0.5838932993838085,-0.10540329663740901,0.26890013023637904,0.17623770298418706,0.6075436775949483,-2.8562433145503348,-1.6175565580463458,-0.18505794405126855,-0.8782556240112157,-0.24859181825923793,-1.7402808503541118,6.55099593812173,4.501112207566035,0.7992785087047278,,,,,,,
1.3005531091301452,0.5470666087351028,0.4579817197426783,0.0012580308498990993,-6.906091180569618,0.14566328223719616,-3.6473021121263827,0.0009295995015621247,-0.004873131244099962,0.0,0.0,0.0,0.0,0.0,-1.9093533313647149,-1.9718239603044443,-2.2364548884767865,-0.0033717353177712766,9.36579187243327,-7.457463087599232,-4.6296608546022915,-0.17215598593275164,0.30819036557025337,0.20531098791418353,-0.001316861025810334,2.9511892795220427,-1.6398762854474294,-0.37492937965030476,0.005509309576609667,0.003431193917437823,0.003521151852764852,-0.07006081761993177,0.26839063145503644,-0.21358201328995396,-0.1325223971726939,-0.03300676912605381,-0.019542045987561405,-0.01974063535359718,-0.0003104086870340881,0.6403675027429231,-0.6157909295070872,-0.42804839155843377,0.20332887420271706,0.10725540797506725,0.10070356610451664,0.001115340060133988,-2.660987855417485,1.8075778995240488,1.2462468458552478,0.2938949895832885,-2.1742790500280655,-1.969642444196355,-1.1414528087226552,1.0733294727925347,-1.4346705484056137,0.19601678968724132,-0.11099697764149494,0.442189426976572,-1.7861643513427978,-1.041358282460672,-0.09476790726292127,-0.8316605905123324,-0.13845869087865365,-1.6763394026892484,6.323392149427515,4.359107983842907,0.7827833656016692,0.08356264034723761,0.07072866955590598,0.19891262277565142,-0.9757964877018098,-0.5998540484215242,-0.10721510151771364,0.2604395377592132,0.1745127859953667,0.5905826936283272,-2.7923060586691717,-1.5735266610238934,-0.17717913759981824,-0.8494583096019659,-0.18052580225071518,-1.7007628624073536,6.410329060740456,4.4133487707590975,0.7890839496177442,,,,,,,
1.2210651306409497,0.529296559089315,0.4460427789599458,0.0012987007784296973,-6.850749365743258,0.18324322254792413,-3.0485669785623726,0.000960199737233572,-0.0048671942451626446,0.0,0.0,0.0,0.0,0.0,-2.000650993357082,-2.1693288124320182,-2.4089872656883977,-0.003430002696994992,9.643039617563993,-7.754048305582475,-4.991272151764569,-0.21728684377055923,0.23214540502257078,0.1337416576763164,-0.0013671957449633884,3.1239159208842437,-1.799034523407951,-0.5243544855789223,0.005199363733122797,0.003248824383092714,0.003346562320153186,-0.07357858409985418,0.2741951300012918,-0.218837949769425,-0.13663900877051463,-0.031095539906956467,-0.018522665122133034,-0.018778203970448007,-0.0002993851565105912,0.6144426991253226,-0.5977334748341016,-0.41528106640202506,0.19112767192358762,0.10191374059650522,0.09624313831491718,0.0011023530523496911,-2.5924803617600523,1.8057454672985696,1.2767325156408715,0.2957747870692508,-2.1753970677297287,-1.9653842535693975,-1.1586951856985177,1.0633429537023706,-1.435541319914059,0.18797974859622754,-0.1118017701663175,0.42581906269574904,-1.72423769758625,-0.9986519090164079,-0.08707715084451817,-0.8037041091013768,-0.08047925248225646,-1.6370364280822933,6.192665375654798,4.270637344426411,0.7690756418403093,0.08612786186863775,0.07247198487870628,0.2047380064974276,-1.0034147262502746,-0.6153789376529664,-0.10894888137456189,0.25226110841301363,0.1733988326294769,0.5740154038355325,-2.729706787135133,-1.5303792850193507,-0.16942655211009663,-0.8211806585645244,-0.11869363403664977,-1.6613777600126285,6.275805505240966,4.32514825870252,0.7767181353539205,,,,,,,
1.146054854952866,0.5084011657797982,0.4321698022682896,0.0013458256703914682,-6.77947441162674,0.25010657566992833,-2.4744980131763405,0.0009907620658635185,-0.0048610650977305,0.0,0.0,0.0,0.0,0.0,-2.0776168226491736,-2.3562146636185632,-2.5689478504224876,-0.003465564018919473,9.850332246248978,-8.008845695745311,-5.3418231414230535,-0.2585315734097383,0.15888218250169775,0.065511702672925,-0.0014113086872881216,3.2775473689014336,-1.946884688077899,-0.6709994713346442,0.00490746612954529,0.0030759773430671013,0.003180084891650281,-0.07705110155570105,0.279737680813863,-0.22390825317609706,-0.14063118816569609,-0.02929882015369658,-0.017554611091105912,-0.017858989567525664,-0.00028849620855413345,0.5891958429488847,-0.5797010308186828,-0.4022662914442987,0.17967687821516662,0.09678108748196869,0.09192144029223429,0.0010888947956457765,-2.524685617643785,1.8032444015418703,1.301477495772635,0.29757694648127886,-2.176517879132756,-1.9612858849785413,-1.1753308340300166,1.05377460337861,-1.4363367993466043,0.18021594120280224,-0.1120811403027353,0.40983685908561884,-1.6635648331498791,-0.9568350323760771,-0.07954794325454011,-0.7763807393425299,-0.02793701364178107,-1.59822036101302,6.0672864436370855,4.181687664033078,0.752920758997806,0.08861264417166327,0.07420658243551215,0.21039964554669183,-1.030413038897558,-0.630476817167973,-0.11060602687409556,0.24435886165572665,0.17283900911251965,0.557838033129289,-2.668389563361897,-1.4881190907612618,-0.16182380658296308,-0.793492785792082,-0.06260295792854902,-1.6223443407898317,6.1469336378675346,4.236484735150532,0.7620105479227686,,,,,,,
1.0755025660412476,0.48605681751905105,0.4172491184414179,0.0013975224671302017,-6.694510195207615,0.34260989806300657,-1.9269670675847728,0.0010212852809035613,-0.004854744043771775,0.0,0.0,0.0,0.0,0.0,-2.13911295858332,-2.5295097815426293,-2.713895326930832,-0.0034779271148895606,9.983941907656575,-8.21853510345921,-5.675742045904953,-0.29585251048768574,0.0886971444336065,0.0008259123191165924,-0.0014492904643476476,3.4119967053814073,-2.083387466496788,-0.8142544218510375,0.00463251433621048,0.00291216183340763,0.0030213800378455363,-0.08047129522726337,0.2850261071305644,-0.22879600893655694,-0.14449685733469356,-0.02760955158116018,-0.016635648846741253,-0.016981500076447463,-0.0002777470128443887,0.5646184377919676,-0.5617028477930704,-0.3890588197798139,0.16893191282458495,0.09187194010125138,0.0877489491078201,0.0010749195709744744,-2.4577405156917087,1.7998183025612402,1.3207471664484827,0.29930413463931255,-2.177636729247641,-1.9573435195845938,-1.1913718074579815,1.0446154801467529,-1.4370588497881298,0.1727188158033687,-0.11188501148852768,0.3942365393947339,-1.6040973427964969,-0.915912323185703,-0.07220504415254377,-0.7497125399433546,0.019612881420762437,-1.560031969088491,5.946749035338235,4.092270919037414,0.7342899101996343,0.09101971487826085,0.07593777046677304,0.21590140163003563,-1.056804021952929,-0.6451565822268289,-0.11218816318043107,0.2367264478564416,0.17278107701107026,0.5420451576202492,-2.6083034685665782,-1.4467507363708623,-0.15439524599945328,-0.766435105821742,-0.011790774797073501,-1.583833177158786,6.023212749480039,4.147355695145298,0.7448782516200491,,,,,,,
1.0092776913411121,0.4633036095327836,0.4018457576375131,0.0014522327895192004,-6.597932059174694,0.45723482684167926,-1.40741926748289,0.0010517681773494344,-0.004848231332830854,0.0,0.0,0.0,0.0,0.0,-2.1844106283174876,-2.686636705109558,-2.841791194040532,-0.003467106075477434,10.041989407723841,-8.380794531961984,-5.987698464032734,-0.3292047552868715,0.021911761423971686,-0.06008469434402751,-0.001481212376610396,3.527163907106093,-2.2084183707389546,-0.9533857631026761,0.004373476577919977,0.00275691090704794,0.0028701186399170686,-0.08383264799121537,0.29006817604523144,-0.23350431247728365,-0.1482344377850364,-0.026021108649565784,-0.015763502436137097,-0.016144195161133013,-0.0002671430404135959,0.540700825840968,-0.5437503882501422,-0.37571060618858076,0.15884950121256558,0.08719038896943236,0.08373049153144498,0.0010603972430792824,-2.3917611950999618,1.7952459542928234,1.3348213591233116,0.3009589518153741,-2.1787493212135223,-1.9535534119166007,-1.206829725031452,1.035856598672602,-1.4377095789247791,0.165481717606152,-0.1112591965881134,0.3790107667993241,-1.5457917573470417,-0.8758881474150872,-0.06507291366493229,-0.7237098197216703,0.06258149004142839,-1.5225772595409783,5.830558544945526,4.0024175770615775,0.7132130487611481,0.09335173826408291,0.07767035423335115,0.22124707834194185,-1.08259978713321,-0.6594271724188251,-0.11369715491453448,0.22935732126428043,0.17317706897403215,0.5266300938293401,-2.549402548884734,-1.4062786771840408,-0.14716526465370455,-0.7400294268328342,0.03417381269342938,-1.5459749380589174,5.904145903002136,4.057779011904113,0.725308079992588,,,,,,,
0.9471891931897569,0.4407747238682064,0.3863195899675778,0.001508680567291758,-6.491647576056803,0.5906009187384154,-0.9169228203648183,0.0010822095517885814,-0.004841527222018415,0.0,0.0,0.0,0.0,0.0,-2.213215031196291,-2.825506597290546,-2.951076143225804,-0.0034336272853897885,10.02452536309237,-8.494391991714016,-6.272835711096569,-0.35855712496451575,-0.041152951152408385,-0.11698922990883877,-0.0015071567307167514,3.6230315579871237,-2.3218370548178404,-1.087587689090932,0.004129387101519444,0.0026097812575870223,0.002725982369989506,-0.08712918922886592,0.29487157845325795,-0.23803627322878018,-0.1518428260466076,-0.02452727946081865,-0.014935918319458048,-0.015345522204815321,-0.00025668993603953223,0.5174323786475741,-0.5258569887990878,-0.36227070031531117,0.14938827920441639,0.08273419277858528,0.0798672956317692,0.0010453104374063649,-2.3268447193393937,1.7893399451054393,1.3439905873269598,0.30254393142192393,-2.1798517785171043,-1.949911897515092,-1.2217158188454953,1.0274889346642406,-1.4382913312174157,0.15849796065498362,-0.11024573035821675,0.36415144015088124,-1.4886093814043477,-0.8367664008361356,-0.05817522926366388,-0.6983756951168363,0.10134662298966413,-1.4859326648442885,5.71823759426939,3.912174657895159,0.6897684401268407,0.0956113134046126,0.07940867703971252,0.22644040981931995,-1.1078120100531592,-0.6732975688913672,-0.11513510470603348,0.22224484720331833,0.17398295980451423,0.5115852263528551,-2.491645684674101,-1.3667069884066516,-0.14015775672551137,-0.714286004874078,0.07568889257635134,-1.5088667724504694,5.789248249414291,3.9677905722166074,0.7033433746076254,,,,,,,
0.8890168309697022,0.41884388304179454,0.37089935981313854,0.0015658090997779832,-6.3773994027660486,0.739476263483807,-0.45621232039216864,0.0011126082024476632,-0.004834631976001273,0.0,0.0,0.0,0.0,0.0,-2.2256646988914284,-2.9445849096239924,-3.04071806711465,-0.0033785047398088583,9.933494561050496,-8.559213589809735,-6.5269736726226295,-0.38390865125896234,-0.10020063490022174,-0.16968061462023026,-0.0015272387918372776,3.6997370365062747,-2.4235432772450367,-1.2160339167193503,0.0038993418059326546,0.0024703524763983733,0.0025886638410521357,-0.09035548246937386,0.2994439109227434,-0.24239501776633335,-0.15532136823938936,-0.023122243734569337,-0.01415070274221258,-0.014583939184478943,-0.0002463934125754464,0.49480167139445674,-0.5080375369743818,-0.34878517321000235,0.14050908501959397,0.07849737299301017,0.07615830203363781,0.001029652346408585,-2.2630707253117333,1.7819451824706012,1.3485527105308814,0.3040615401324719,-2.1809406104062306,-1.946415398046491,-1.2360409796848113,1.0195034310605535,-1.438806676084153,0.15176087105479708,-0.10888318891261242,0.3496499468600948,-1.4325160839315985,-0.7985503603687157,-0.051534486673731436,-0.6737089600186541,0.13625414456043244,-1.4501493290786418,5.609329747274935,3.8216040467419865,0.6640742589932445,0.09780097334223851,0.08115665807721721,0.23148505250472856,-1.1324519773248745,-0.6867767898749909,-0.11650434656350997,0.21538236763871338,0.17515834432880173,0.4969022861833873,-2.4349964084537166,-1.3280392067320288,-0.13339566589478974,-0.6892080119903969,0.11312027683971546,-1.4725773967141826,5.678052499887198,3.8774423307760393,0.6790737264497888,,,,,,,
0.83452999222626,0.3977201980493589,0.35572987086257557,0.001622687410620131,-6.2567695965998205,0.9007856106724166,-0.02572673207301701,0.0011429629292400028,-0.004827545866991934,0.0,0.0,0.0,0.0,0.0,-2.2223058428355253,-3.0429233986231243,-3.1102282070105396,-0.0033031872813076503,9.772588876270243,-8.576226630047792,-6.746765621989546,-0.40529999072640066,-0.1549804169680702,-0.2179949773407689,-0.0015416205774537218,3.7576195063419107,-2.51351830762749,-1.337926391598588,0.003682494142786652,0.002338226108288651,0.0024578666081274125,-0.0935066118477843,0.3037926594377782,-0.24658369214386838,-0.15866983395928433,-0.021800549747088442,-0.013405742646379122,-0.013857929151228823,-0.00023625915785242254,0.4727966411009994,-0.49030816371074304,-0.33529707343148624,0.13217506299009263,0.07447185996436453,0.07260100332501206,0.0010134254723023837,-2.200503029345735,1.772937326363877,1.3488099778516116,0.3055141782555148,-2.1820126803248576,-1.9430604242554723,-1.2498158003129751,1.0118910055494739,-1.4392583927942937,0.14526381230429036,-0.10720699186270424,0.3354973791018788,-1.3774820628163835,-0.7612425511079747,-0.04517167101407953,-0.6497058750506717,0.16761970499081807,-1.4152567758216,5.503402111521487,3.730780926074104,0.6362815659651906,0.09992318487873944,0.08291782715922645,0.23638457954078965,-1.1565306317699693,-0.6998738846946158,-0.11780743502059239,0.20876324057192164,0.17666612888388583,0.482572587965332,-2.3794226879577094,-1.2902781888065697,-0.12690061518698023,-0.6647943487333939,0.14680277580452972,-1.4371513047463191,5.57011262372882,3.7868005978324395,0.6526267168182669,,,,,,,
0.7834990746705822,0.37750908254259585,0.3409020374548974,0.0016785247818952055,-6.131185052280497,1.0716174817831936,0.3743574669190508,0.001173272533812962,-0.004820269174737849,0.0,0.0,0.0,0.0,0.0,-2.2040449003898157,-3.1201573719769944,-3.1596455440866458,-0.0032094833277710897,9.547006015120509,-8.547383588865701,-6.929798119346142,-0.4228195723966164,-0.20530283005437844,-0.2618256986509434,-0.0015505170931287252,3.7972419457559905,-2.5918514626300513,-1.4525377864212659,0.0034780512842675915,0.0022130246098915583,0.0023333050728157265,-0.096578167432816,0.30792518495419896,-0.2506054634749684,-0.16188838970198008,-0.020557091371157698,-0.012699016211798428,-0.013166009321724192,-0.00022629275560758823,0.4514047293127701,-0.4726859521952826,-0.321846409399662,0.12435165345880277,0.0706485299050291,0.06919198295046308,0.0009966402244834317,-2.13919117882293,1.762221151546045,1.345066403182421,0.30690418025227084,-2.1830651771723106,-1.9398435770792588,-1.2630506162152124,1.0046425592623327,-1.4396494526800523,0.13900019967560462,-0.10524968474531757,0.32168471762135575,-1.323481590223731,-0.724844628714124,-0.03910598857585455,-0.626361262868573,0.19573071173866768,-1.3812661480523072,5.400047259265252,3.6397922393850632,0.606568243822498,0.10198034874491363,0.08469535648505298,0.24114247739660774,-1.180058615405507,-0.7125979264383742,-0.11904713083516243,0.2023808631764509,0.17847224036423914,0.4685872318532913,-2.3248966844873187,-1.2534259856019652,-0.12069260423984873,-0.6410413953763914,0.1770419032112043,-1.402612378442806,5.465006448181196,3.6959444356816333,0.6241610150369625,,,,,,,
0.7357018487855888,0.3582513785071323,0.32647205808065266,0.0017326422196975748,-6.00192417373191,1.249229142639141,0.7440973588318522,0.0012035358195952508,-0.004812802186510368,0.0,0.0,0.0,0.0,0.0,-2.1720845968769287,-3.1764708182518704,-3.189492915596318,-0.003099470689643627,9.263140221743262,-8.475478723141151,-7.074629941124625,-0.43660478397308816,-0.25104997494396764,-0.30113162838693336,-0.0015541960370706682,3.819390439329799,-2.658752516864616,-1.5592453333701333,0.003285270548459396,0.002094390275742315,0.0022147043245481085,-0.09956622949302629,0.3118487107030421,-0.2544635208117873,-0.16497757202554705,-0.019387085853238124,-0.012028596940400114,-0.012506736698027626,-0.00021649961758472367,0.430613009941914,-0.45518866359408605,-0.308470155103721,0.117006519051811,0.06701785060469323,0.06592726236965656,0.000979313802286456,-2.079171937085611,1.7497288601196537,1.3376254295941026,0.30823381533300664,-2.1840955891784124,-1.9367615472160695,-1.2757555436464987,0.9977489864895546,-1.4399829992038742,0.13296350807357885,-0.10304120061017029,0.30820298631892307,-1.2704927431286253,-0.6893572772778124,-0.03335465238218839,-0.603669160202578,0.22084841351472762,-1.3481731302432685,5.298884709510564,3.5487351436311614,0.5751336193666163,0.1039747999932595,0.08649208960695715,0.2457621443818846,-1.203046309964061,-0.7249580034463035,-0.12022638389644788,0.19622868501656027,0.1805453549379059,0.4549372740223121,-2.2713944929883696,-1.2174837324359185,-0.11478976506166175,-0.6179440838034204,0.20411581550730418,-1.3689670727335002,5.362337567412518,3.604964089734632,0.5938604181327991,,,,,,,
0.6909268679858305,0.33994839502421437,0.31247361387876094,0.0017843847182285179,-5.870123906174252,1.4310511611803634,1.0837579032857425,0.0012337515918441654,-0.004805145197093401,0.0,0.0,0.0,0.0,0.0,-2.127850046431516,-3.2125351578717942,-3.200710945472349,-0.002975399938928153,8.928235648108902,-8.3639728592086,-7.180772744725996,-0.4468389081097478,-0.292179784231877,-0.3359396286014412,-0.0015529723493724,3.8250546261261893,-2.714551729127024,-1.6575545411227626,0.003103456069010968,0.0019819841718060538,0.0021017999399575854,-0.10246735178189104,0.3155703111723126,-0.25816107536946775,-0.16793826063529524,-0.01828605266893112,-0.011392653787139528,-0.011878711435718937,-0.00020688491803368196,0.4104083029616753,-0.43783448010900755,-0.29520227659810855,0.11010943684910182,0.06357027675932356,0.06280252623086895,0.0009614699551041707,-2.0204706980238685,1.73541834850785,1.3267878505612452,0.3095052880951487,-2.185101680182733,-1.9338111134150795,-1.2879405148668515,0.9912011852591319,-1.4402623263672616,0.12714727621420416,-0.10060910043209734,0.2950433800989947,-1.2184971220352827,-0.6547801230422661,-0.02793271633873455,-0.5816231859374698,0.2432100178072955,-1.3159606219928326,5.19956210933425,3.4577154235546326,0.5421936043453841,0.10590880851999629,0.08831056779411975,0.2502468907437588,-1.2255038747715636,-0.7369632097789006,-0.12134831390830915,0.1903002154102702,0.1828566473870566,0.44161386886148013,-2.2188958680668938,-1.1824515547978856,-0.10920816978315273,-0.5954965344203493,0.22827736129176313,-1.3362072845527706,5.261736801785815,3.513959409237305,0.561928571121765,,,,,,,
0.6489750707767972,0.3225779507304988,0.29892571266329493,0.0018332795118021798,-5.736787794913267,1.614690736381763,1.39378903951215,0.0012639186576927548,-0.004797298508771778,0.0,0.0,0.0,0.0,0.0,-2.072911627478783,-3.229429321311858,-3.194577381033675,-0.0028395993230809487,8.55003311358156,-8.216803230731216,-7.248621758810631,-0.4537448027972987,-0.3287248689532828,-0.3663421177310097,-0.001547199139333013,3.815394274823654,-2.75968996654518,-1.7471124541481622,0.0029319556944567005,0.0018754851000850918,0.001994337754184075,-0.10527854393255542,0.31909690269401053,-0.2617013601405618,-0.17077165155889132,-0.017249793616948495,-0.010789448941890874,-0.011280578744676577,-0.00019745354643382047,0.39077727476092794,-0.4206417656975672,-0.2820737769964473,0.10363217453366673,0.06029648487553475,0.059813269104236,0.0009431371599861489,-1.9631028200747358,1.7192714411440324,1.3128499601661237,0.31072073918430354,-2.1860814681081515,-1.9309891397343901,-1.299615310468804,0.9849900686154771,-1.4404908559059382,0.12154510891548174,-0.09797879254184888,0.28219736806893403,-1.1674795601952475,-0.6211116643654783,-0.02285295386766708,-0.5602167298722414,0.26303078902484534,-1.2846012030060714,5.101756184003519,3.3668458676787845,0.5079762471067473,0.10778457966118281,0.09015305399600412,0.25459994007126185,-1.2474412818490652,-0.7486226348261212,-0.12241618935408614,0.18458902751991185,0.185379561279482,0.4286083852693091,-2.167383938930205,-1.148328490276655,-0.10396168546201862,-0.5736924160931655,0.24975616085637115,-1.3043129721307118,5.16286334245515,3.4230382403487694,0.5285842011084368,,,,,,,
0.6096601951292857,0.30610453342454214,0.2858376562994702,0.0018788283027282434,-5.602793926915428,1.7979343846663554,1.6748051239762196,0.001294035826196914,-0.004789262431319322,0.0,0.0,0.0,0.0,0.0,-2.0089107010575225,-3.2285495654397933,-3.172619749510405,-0.0026943880039844905,8.136437125098434,-8.038194231350804,-7.279348495904368,-0.4575764462783193,-0.3607868897331006,-0.3924906554382645,-0.001537256557624627,3.791697327829395,-2.7947017953955697,-1.8277111199946765,0.0027701581021327693,0.0017745886076531029,0.0018920736131662966,-0.1079972530614367,0.32243523555998166,-0.26508762894132604,-0.17347923056560025,-0.016274374193028844,-0.010217334278257304,-0.010711029819264164,-0.0001882100576642318,0.3717065259528721,-0.40362884472459354,-0.2691127579071837,0.09754836239687015,0.057187506578895646,0.056954892541241295,0.0009243488769588665,-1.9070748808055815,1.7012920972973689,1.2961019089263615,0.3118822459705788,-2.187033205424467,-1.9282925719941246,-1.3107895887237704,0.9791065764332499,-1.4406721136807552,0.1161506786275221,-0.09517373163155707,0.2696567740265451,-1.1174278254966352,-0.5883492182227187,-0.018125777481696217,-0.5394430287959641,0.2805060910291818,-1.2540594042388955,5.005173469861218,3.2762446142759583,0.47271763859708615,0.10960425483221234,0.09202155460874159,0.2588244317568666,-1.268868348136355,-0.7599453522193989,-0.12343340519933868,0.17908876080473457,0.1880895996797814,0.4159124991618547,-2.1168449157268694,-1.1151124268826713,-0.09906187190371457,-0.5525251306496362,0.26876066285485406,-1.273254559117619,5.065405641510459,3.332314790103929,0.4940567666418014,,,,,,,
0.5728087082746899,0.2904857635741692,0.2732122761451433,0.0019206507951064259,-5.468903359255872,1.9787500499873767,1.9275659237588672,0.001324101908382399,-0.004781037281986607,0.0,0.0,0.0,0.0,0.0,-1.93749294953167,-3.2115169959291388,-3.13652854904476,-0.0025420023931331244,7.695223571375026,-7.832482188864419,-7.274769077602647,-0.45860944342390014,-0.3885276537354428,-0.4145867838463587,-0.0015235400012857555,3.755334470568651,-2.8201944252003535,-1.8992826972849555,0.0026174901118427574,0.0016790060469029115,0.001794773112915038,-0.11062134468667384,0.3255918875873834,-0.26832315492991093,-0.17606274697031668,-0.015356106236779764,-0.009674747115648684,-0.010168802121466265,-0.00017915863397415378,0.3531826674807419,-0.3868137987566186,-0.25634449541029597,0.09183336604586295,0.05423479728716168,0.05422276977978986,0.0009051423690078022,-1.8523858472130228,1.681504596797495,1.2768262496887728,0.3129918232395019,-2.18795536140574,-1.9257184336334836,-1.321472911895597,0.9735416875996821,-1.4408097056415534,0.11095772689231374,-0.09221559812728528,0.257413836064099,-1.068332317182671,-0.5564888833567863,-0.013759196079815957,-0.5192951735208351,0.29581335042717877,-1.224293796244609,4.909550831396414,3.186033486593238,0.43665814018802607,0.11136991219540474,0.0939178392447296,0.26292342428567916,-1.289794764761377,-0.7709404082107607,-0.12440345974861694,0.17379312285477472,0.19096413578201954,0.40351826412155534,-2.0672677895631018,-1.0828000579292978,-0.09451791899155436,-0.5319878876993352,0.2854801432615826,-1.2429951435469748,4.969082071549819,3.2419079726156825,0.4585824645858094,,,,,,,
0.5382591748653853,0.2756764257888511,0.26104800835497627,0.0019584001995884585,-5.335768547705122,2.1552886506770452,2.152958867311927,0.001354115717291767,-0.004772623385488445,0.0,0.0,0.0,0.0,0.0,-1.8602525166141806,-3.1800894715015438,-3.08807677965484,-0.0023845382990607773,7.233800925719568,-7.603963515131158,-7.237201439646815,-0.4571314495475166,-0.4121582032194586,-0.43287134210433986,-0.0015064487838444176,3.707714500918159,-2.8368251030718,-1.9618880954046787,0.0024734141851142644,0.0015884636896794542,0.0017022113298555408,-0.11314908307255889,0.32857325905215234,-0.27141122863530837,-0.17852418795055994,-0.014491531788261994,-0.00916020569777425,-0.009652679224503864,-0.0001703030503040346,0.3351923858633822,-0.37021428165371134,-0.24379152880013943,0.08646416542939256,0.05143026456878375,0.0516122896962401,0.0008855583670119176,-1.7990281617359716,1.6599517102907246,1.2552966610156535,0.3140514239008012,-2.188846605994931,-1.9232638211619217,-1.331674769492863,0.9682864324001538,-1.4409072937105372,0.10596006612993017,-0.08912445891909769,0.24546124715619136,-1.0201857597266102,-0.5255255199528305,-0.009758806898372002,-0.49976607623835756,0.3091139208187584,-1.195258890790766,4.8146557456060854,3.0963363403955797,0.4000389181443955,0.11308356734994475,0.09584345869879105,0.26689989914283224,-1.3102301233038862,-0.7816168096833491,-0.1253299310371475,0.16869589121908127,0.19398224260114266,0.3914181620801532,-2.018644028516086,-1.051386853442793,-0.09033662030249665,-0.5120737130373602,0.3000866210744717,-1.213492516848082,4.873641353358822,3.1519397561058597,0.4224005630630577,,,,,,,
0.5058615894608722,0.26163094151751554,0.24934024102203634,0.001991841701548373,-5.203941754989838,2.3258847969992447,2.3519823821610553,0.001384076068031234,-0.004764021073991066,0.0,0.0,0.0,0.0,0.0,-1.7786885229549194,-3.1360828010766437,-3.0290498620247344,-0.0022239096111558773,6.7590304224757976,-7.356771598473701,-7.169322927763326,-0.4534332546388239,-0.43192706768996475,-0.44761333704422307,-0.001486376069593248,3.6502437107575805,-2.845279061126808,-2.015701189072795,0.002337426096644002,0.0015027018954127452,0.0016141725451219585,-0.11557911111459962,0.3313855689068304,-0.274355155535503,-0.18086575349268033,-0.013677408087564069,-0.008672304634819989,-0.009161490351643667,-0.00016164665080407027,0.31772249842152145,-0.353847353030504,-0.231473760428199,0.08141924053875209,0.04876627177443907,0.049118887286019736,0.0008656399499964339,-1.7469887441860732,1.6366928623207322,1.231776837194043,0.3150629397203959,-2.1897057951006254,-1.9209258993755127,-1.3414045984572782,0.96333190494591,-1.4409685719012033,0.10115158195947016,-0.08591891056943611,0.23379217864091248,-0.9729828964415165,-0.49545274542437084,-0.006127819066604408,-0.48084841704600056,0.32055483496615844,-1.166906851527889,4.72028632850937,3.0072774528459623,0.36309878317675937,0.11474717404414403,0.09779976129524151,0.2707567651489896,-1.3301839390267778,-0.7919835119556741,-0.1262164531055017,0.16379091557746406,0.19712454069143392,0.3796051359420923,-1.9709672721424796,-1.0208670478128061,-0.08652237989291356,-0.49277541880592407,0.31273667294853685,-1.1847009922916756,4.778862735656276,3.0625335358003984,0.38575004749996045,,,,,,,
0.4754766455285567,0.24830485858804568,0.23808224449882454,0.0020207178855316575,-5.073883405226631,2.4890572287727952,2.5257297080580443,0.0014139817778174525,-0.004755230687098995,0.0,0.0,0.0,0.0,0.0,-1.6941741362462106,-3.081304266036873,-2.9611882123592506,-0.0020618227502825553,6.277104463688164,-7.094784184527255,-7.07403720321488,-0.44780103198923027,-0.44810865259766786,-0.45909923497736876,-0.001463700567984691,3.584291354872803,-2.8462495336228546,-2.060990550920927,0.002209052765395514,0.0014214743318011914,0.0015304499649050896,-0.11791042988184675,0.3340348521974035,-0.2771582532238092,-0.18308983207182095,-0.012910693644267536,-0.00820971045826463,-0.008694109703233352,-0.0001531923230926591,0.3007599993201834,-0.337729330130174,-0.21940856502706438,0.07667846441872216,0.04623562677316713,0.04673806484103149,0.0008454327711411173,-1.6962499101338069,1.6118022900330042,1.2065195401134625,0.31602820208181265,-2.190531957162797,-1.9187018964903402,-1.35067180031245,0.9586692754896106,-1.4409972429580913,0.0965262361416743,-0.08261620621717156,0.2224002885172566,-0.9267201855171756,-0.46626294562995235,-0.0028671056888043573,-0.4625345817795857,0.33027043522645605,-1.139189012365588,4.626271092434086,2.9189799794418505,0.3260713377800051,0.1163626249132436,0.0997879077895911,0.27449686305301974,-1.3496656710739758,-0.8020494065376662,-0.12706669247367386,0.15907212043401558,0.2003730627385064,0.36807260606598824,-1.9242330271085861,-0.9912336431332102,-0.08307724916005514,-0.4740855536754006,0.3235731339869517,-1.1565730418020506,4.684555913745765,2.9738125587648923,0.34886657648828934,,,,,,,
0.446974855196694,0.23565573302117282,0.22726572451826216,0.002044913118205867,-4.94597021305998,2.643508120743765,2.6753732060205593,0.0014438316660242076,-0.004746252571841658,0.0,0.0,0.0,0.0,0.0,-1.6079373164513797,-3.0174997830256434,-2.8861431785330933,-0.0018997649449262932,5.793477964611744,-6.821560112277503,-6.95435651325954,-0.4405100276371208,-0.4609924880361175,-0.4676232891154527,-0.0014387801775560699,3.5111622352778644,-2.840420779558397,-2.098100372411762,0.0020878502337587923,0.001344547245675903,0.0014508454385053979,-0.12014237793353,0.33652695859248694,-0.27982384820335693,-0.18519897715868278,-0.012188535288778075,-0.007771157376515696,-0.008249455627274863,-0.0001449424866930685,0.2842920972401513,-0.3218756580419183,-0.2076109069465318,0.07222300498098375,0.04383156187036694,0.04446540759584887,0.0008249836399590587,-1.646790208003207,1.5853672088255666,1.179765808053257,0.3169489827831743,-2.191324280837495,-1.916589099324839,-1.3594857553259558,0.9542898024836677,-1.4409969957715685,0.0920780701361619,-0.07923236746977334,0.21127971655012484,-0.88139550135059,-0.43794730059428333,2.471865227091823e-05,-0.44481660055123967,0.338383874739821,-1.1120571967131752,4.532468416658563,2.8315645035669017,0.28918243410752753,0.11793175224748202,0.10180888498681363,0.27812297023054156,-1.3686847396609951,-0.8118233089899037,-0.1278843250997844,0.15453350838927388,0.20371113377998543,0.3568144725723422,-1.8784383667296816,-0.9624784274328115,-0.08000099067607637,-0.45599634582954174,0.33272667517078813,-1.1290607364992005,4.590560671281974,2.885898425818963,0.3119797479075905,,,,,,,
0.42023583397408915,0.22364353651382896,0.2168812777421196,0.0020642999742741253,-4.820503243635477,2.7881217108427503,2.8021493341712223,0.0014736245542290238,-0.00473708708265967,0.0,0.0,0.0,0.0,0.0,-1.5210516714642648,-2.946314636743198,-2.8054458301747545,-0.0017390038744556828,5.312844554058801,-6.540302282735648,-6.813302682623009,-0.43181977558061097,-0.47087380680142127,-0.4734792741959468,-0.0014119475697024365,3.432076573286421,-2.8284545390286935,-2.1274318804044836,0.0019734017840096207,0.0012716987812017994,0.001375169175407212,-0.12227461052607003,0.33886755193732776,-0.282355272351267,-0.18719588463481887,-0.01150825613399442,-0.0073554432721138745,-0.007826489679090587,-0.00013689908029090533,0.2683062454844828,-0.3063007981247469,-0.19609346379941636,0.06803523397033455,0.04154770965096085,0.04229659481842767,0.0008043406402163174,-1.5985851755668523,1.557485991717139,1.1517443147115447,0.3178269948753464,-2.1920821036637386,-1.914584848643043,-1.3678558337667097,0.9501848442483245,-1.4409714837901977,0.0878012092172086,-0.0757822826243808,0.20042506817959296,-0.837007844075397,-0.41049582353431374,0.0025511981370737245,-0.42768609189532886,0.3450084845392537,-1.085464837053188,4.438765727519295,2.745147705996959,0.2526479484802806,0.11945632879565213,0.10386351822552921,0.2816378053566633,-1.3872505403120938,-0.8213139470279665,-0.12867301407716009,0.15016916397451316,0.20712326574721268,0.34582510546367157,-1.83358163728166,-0.9345920067288869,-0.07729116584797471,-0.43849964666805774,0.3403172508038467,-1.1021169888714422,4.496746236716259,2.798909697027951,0.27531067924782143,,,,,,,
0.3951475613444763,0.21223088445442712,0.20691866736158304,0.0020788278472716124,-4.697715639245259,2.9219619154963183,2.9073436748985992,0.0015033592662596882,-0.00472773458139085,0.0,0.0,0.0,0.0,0.0,-1.434435516385978,-2.8692667237838867,-2.7204872733172505,-0.0015805959785005342,4.839148315593393,-6.25384260937827,-6.653827922157593,-0.4219707799800777,-0.47804569443175804,-0.47695379126241433,-0.0013835075364942349,3.3481567198030295,-2.810979954257187,-2.1494261734087057,0.0018653161821439168,0.0012027183423208628,0.0013032394625067667,-0.12430707882413095,0.34106211074454085,-0.28475585909600404,-0.1890833711868357,-0.010867344373374591,-0.0069614259633073265,-0.007424215597642468,-0.00012906355667346932,0.2527901652927388,-0.29101813439912516,-0.18486675501979077,0.06409864332496185,0.03937807654240563,0.04022740814481184,0.0007835523617436013,-1.5516080191743997,1.528266372562176,1.1226708779625587,0.3186638935458689,-2.192804901589491,-1.912686534751003,-1.3757914043679278,0.9463458701300987,-1.4409243046216624,0.08368986705225065,-0.07227979257522077,0.1898313892040002,-0.7935570601218181,-0.3838974118225747,0.004717916853519923,-0.4111342164957956,0.3502490049160031,-1.059367897559277,4.345078395357885,2.6598411711739036,0.21667187164461987,0.1209380686090929,0.10595248286439593,0.2850440329408553,-1.4053724552258533,-0.8305299490025739,-0.12943638829222928,0.1459732579797391,0.2105950649883266,0.33509932453098334,-1.7896621739232823,-0.9075638496384321,-0.0749432432507358,-0.42158688070483785,0.3464554124130659,-1.0756965974523514,4.403010355756457,2.712960621284806,0.2390699030892771,,,,,,,
0.37160567774072173,0.2013830507242506,0.19736701950713934,0.002088507704230732,-4.577780014385091,3.044268879150991,2.99227674377871,0.0015330346282406843,-0.004718195437255936,0.0,0.0,0.0,0.0,0.0,-1.3488571623750607,-2.7877306465923253,-2.632508700753948,-0.001425400852512133,4.375621739791891,-5.964644291730163,-6.478754851472896,-0.41118251077638507,-0.4827928719000947,-0.47832114419069716,-0.001353735839987278,3.2604198624616596,-2.7885867084441847,-2.1645490477274123,0.001763226039950161,0.0011374059962981648,0.001234882382504618,-0.12624000922570844,0.34311592953347947,-0.2870289393533549,-0.1908643537387347,-0.010263442845096794,-0.006588019731475981,-0.007041678218145064,-0.00012143688382645638,0.2377318631024333,-0.2760398975614185,-0.17393927391454306,0.060397768566974,0.037317016229689956,0.03825373794974045,0.000762667284701294,-1.5058302190305488,1.497823683770666,1.0927481105247716,0.3194612770521208,-2.1934922792471556,-1.9108915934192514,-1.3833018401331632,0.9427644710464753,-1.4408589809814576,0.07973835062519105,-0.06873776576649233,0.17949413317515928,-0.7510435765235418,-0.35813990836233783,0.006532364020490468,-0.3951516427059597,0.3542026808728437,-1.0337256028840909,4.25134835982763,2.5757503460236886,0.18144471669705453,0.12237862793033985,0.10807631489367646,0.28834426763143073,-1.4230598618785983,-0.8394798328728277,-0.13017802223402533,0.1419400521747595,0.2141131514209145,0.32463237099621833,-1.7466800289835778,-0.8813823431096096,-0.07295072446477305,-0.4052490051208384,0.35124348764117863,-1.049757096267529,4.309278087470794,2.6281600075677067,0.20345557929083563,,,,,,,
0.34951292630942127,0.1910678999333254,0.18821500219555476,0.0020933693626928786,-4.460815715791044,3.154454210084756,3.058290102921357,0.001562649468639533,-0.004708470026844004,0.0,0.0,0.0,0.0,0.0,-1.2649445869433193,-2.702930721878373,-2.5425992251804965,-0.001274099470652317,3.9248413643665616,-5.674816877468382,-6.290733998414687,-0.3996525075473145,-0.48538703989655924,-0.4778396776746582,-0.0013228792685079248,3.1697756934248256,-2.761820967957506,-2.173278088182708,0.0016667862868654515,0.0010755719152840048,0.0011699315343608324,-0.12807388290639943,0.3450341209307064,-0.2891778372683489,-0.19254182997048294,-0.009694339306491462,-0.0062341921076294726,-0.006677962338867215,-0.00011401954791571273,0.22311964248370691,-0.2613771061447203,-0.16331762181958748,0.05691811777528635,0.03535920374797316,0.0363715879277849,0.0007417335910743652,-1.4612220618726384,1.4662791416698184,1.062165209495558,0.3202206877059259,-2.194143960882305,-1.909197502185957,-1.390396521647356,0.939432369329108,-1.4407789431176876,0.07594106538050889,-0.06516816351493172,0.16940912332942393,-0.709468151419274,-0.3332101717367308,0.00800378637699951,-0.37972852446821587,0.3569602251560609,-1.0085009845735349,4.157542510426776,2.492973662560704,0.14714223565090423,0.1237796061296842,0.11023542078171139,0.29154107821582775,-1.4403221390008507,-0.8481719957750821,-0.13090141711508732,0.13806390430781457,0.21766508798203033,0.31441987275413025,-1.7046357151597311,-0.8560348577038566,-0.07130528430631586,-0.38947648066828355,0.35477662573013746,-1.0242594169969788,4.2155003435550125,2.5446102515385096,0.1686520189012053,,,,,,,
0.3287784958246401,0.18125576342727795,0.17945092468192939,0.0020934980621623088,-4.346895528281869,3.2520950900752466,3.1067333789489116,0.0015922026183130445,-0.004698558734097603,0.0,0.0,0.0,0.0,0.0,-1.1831978791965059,-2.61594094013266,-2.4516995924091,-0.0011272143565215823,3.4887938495987494,-5.386140043851596,-6.0922164000947845,-0.3875563688591315,-0.4860836291482266,-0.47574939910651026,-0.0012911566008583465,3.077027957679271,-2.7311836359213935,-2.1760920721063894,0.0015756727438763773,0.0010170358529176414,0.0011082277566608276,-0.12980941568207005,0.3468216184450391,-0.29120586581198615,-0.1941188599600907,-0.00915795735303582,-0.005898960905579353,-0.0063321915520575586,-0.0001068115618111853,0.20894211141780872,-0.24703952423702966,-0.1530066430625268,0.05364610712937015,0.033499610815155643,0.03457707868096561,0.0007207986104527421,-1.4177531065898197,1.433758190769066,1.031097875706069,0.3209436129104637,-2.1947597818522353,-1.9076017770779596,-1.3970848380765237,0.9363414277945765,-1.4406875128100398,0.07229252045378283,-0.06158209699306997,0.15957251079974047,-0.6688316429167812,-0.3090941534531544,0.00914303076479104,-0.36485449267260617,0.35860665218617566,-0.983661252968346,4.063650850249276,2.411601828357639,0.11392443877915293,0.1251425466916983,0.11243008665291308,0.29463699126113174,-1.4571686700858746,-0.8566147042742805,-0.1316099834327465,0.1343392732538289,0.22123931907125388,0.3044578049981941,-1.6635299659170513,-0.8315078207887011,-0.06999692239533702,-0.37425925521636305,0.35714371225778035,-0.9991683717464404,4.121652195517618,2.4624065252227023,0.13482851426374381,,,,,,,
0.30931759365065287,0.17191928711513677,0.17106284815089287,0.0020890106241773596,-4.2360521348536295,3.33692701588284,3.1389518895433177,0.0016216929105534726,-0.004688461950297602,0.0,0.0,0.0,0.0,0.0,-1.1040031471329605,-2.527690050867086,-2.360610058383819,-0.0009851302551280683,3.0689466858572345,-5.100092673227089,-5.885438682928489,-0.375048410817358,-0.4851197563024239,-0.4722706755348774,-0.0012587602078569925,2.982878860768749,-2.6971304143763293,-2.173462577514517,0.0014895807922784554,0.0009616266531619561,0.0010496188546629953,-0.1314475382822733,0.3484831798323447,-0.2931163222826601,-0.19559854897578535,-0.008652347939207227,-0.005581391486568393,-0.006003527050062992,-9.981247676907562e-05,0.19518818556539588,-0.23303563503092728,-0.14300955949442043,0.05056900072337463,0.03173348268617139,0.03286645019945668,0.0006999085042109685,-1.3753925852412834,1.4003889206102376,0.9997083568106357,0.3216314862490914,-2.1953396806230696,-1.9061019697712716,-1.4033761860572855,0.9334836579885515,-1.4405878890122128,0.0687873338627708,-0.05798987708341309,0.149980730668807,-0.6291347980761723,-0.2857769806025076,0.009962379782710987,-0.35051865910120306,0.35922199096568763,-0.9591780130933482,3.9696844840608825,2.331717285064676,0.08193490179199481,0.12646893825259553,0.11466048688137445,0.2976344943559611,-1.4736088446098712,-0.864816085368351,-0.1323070250701878,0.13076072418625512,0.22482511674651284,0.29474244786291104,-1.6233635150220784,-0.8077867959761466,-0.06901412312594055,-0.35958675990401046,0.35842815913736226,-0.9744529708765309,4.027730984644819,2.3816361328411446,0.10213846396843759,,,,,,,
0.2910509256095865,0.16303322689221328,0.1630386513857933,0.0020800778885375864,-4.128284101024282,3.408835261481391,3.1562753485664397,0.0016511191811345747,-0.004678180074047736,0.0,0.0,0.0,0.0,0.0,-1.0276468737335553,-2.4389701812557134,-2.270000971373694,-0.0008481142468679603,2.6663191575311678,-4.817884496245235,-5.672418030805116,-0.3622627999535363,-0.4827131700813942,-0.4676037920755386,-0.0012258580566099255,2.887935435173228,-2.660073205352631,-2.165847588069452,0.0014082241307007415,0.00090918178875683,0.0009939593317532455,-0.13298937711911396,0.35002339096754226,-0.2949124837624982,-0.19698403143464585,-0.00817568144918205,-0.005280594234899247,-0.005691166413207004,-9.30213995158197e-05,0.18184708812308548,-0.21937262935097304,-0.13332810346117072,0.04767485558157302,0.030056317053051836,0.031236063685598746,0.0006791077253255926,-1.3341097442310406,1.3663005679954237,0.9681456033249713,0.3222856886245247,-2.1958836912054664,-1.9046956651984341,-1.4092799666910438,0.9308512275656358,-1.4404831351797995,0.06542023754333562,-0.05440105823969462,0.14063045728373796,-0.5903780633758346,-0.26324304229157236,0.010475383241322578,-0.3367096319435181,0.35888188437184676,-0.9350273385069039,3.8756734700337714,2.253393831093527,0.05130034586115917,0.12776021568810475,0.11692669217218504,0.30053603893047687,-1.489652057160625,-0.8727841182999525,-0.13299572500815546,0.12732293365359712,0.22841253350214896,0.28527034257368006,-1.5841368967603684,-0.7848565671588336,-0.06834402124275706,-0.3454479172594456,0.35870857675382717,-0.9500865900441434,3.933754272370358,2.302378031565597,0.07071877905405806,,,,,,,
0.2739042779746105,0.15457430341963424,0.15536610702155534,0.002066865443799994,-4.0235615105979505,3.4678451768743734,3.1600075917585846,0.001680480268357575,-0.004667713511258873,0.0,0.0,0.0,0.0,0.0,-0.9543299846575624,-2.350447669236145,-2.180424880997313,-0.0007163346113263179,2.2815504707105587,-4.5404882469698675,-5.45495466024122,-0.34931499466636723,-0.4790619784192016,-0.46192917085275836,-0.0011925959335740328,2.7927171130701773,-2.6203824395373614,-2.1536868365163935,0.001331333614303598,0.0008595469268507594,0.0009411101259648239,-0.13443623562794782,0.3514466701441804,-0.2965976025784075,-0.19827845603423863,-0.007726240275579418,-0.00499572223004041,-0.005394342387053172,-8.643700880694377e-05,0.16890834683183487,-0.20605640818870624,-0.12396264818709686,0.044952470853877206,0.028463844397194564,0.029682402615383192,0.0006584390708875927,-1.293874129125061,1.33162211622668,0.9365455274073855,0.32290754944569583,-2.196391935979419,-1.903380479597834,-1.414805580866595,0.9284364667826993,-1.4403761683003704,0.06218608211710882,-0.05082447739524744,0.13151856006001256,-0.5525614175551053,-0.24147607829364875,0.010696687942920264,-0.3234155426226797,0.35765808444471825,-0.9111897223725409,3.7816645820729287,2.1766963997923616,0.022130470159768656,0.12901776125035525,0.11922867719138318,0.3033440426451104,-1.50530770468437,-0.8805266272139857,-0.13367913269137147,0.12402069444547835,0.23199236054635589,0.27603824741856986,-1.545850267949928,-0.7627012255599229,-0.06797257040939662,-0.33183116088105313,0.3580593368018775,-0.9260470037671861,3.8397576744281015,2.224702511368189,0.04068955270150839,,,,,,,
0.2578081831751226,0.1465209805865536,0.1480329346986546,0.002049606531304084,-3.9218310522637356,3.514111307299772,3.1514174586663724,0.001709775013097023,-0.004657062675132993,0.0,0.0,0.0,0.0,0.0,-0.8841811271866377,-2.2626750677231167,-2.092329266163089,-0.0005898779988754161,1.9149630298872733,-4.268670867832133,-5.234639727611045,-0.3363033608421178,-0.474344966171951,-0.45540807238105907,-0.0011590997364117764,2.697663906718749,-2.5783899904173015,-2.137398612250969,0.001258656170496697,0.0008125755196037362,0.0008909383521671158,-0.13578957624749277,0.352757272725432,-0.29817490181632017,-0.1994849720545014,-0.007302411872820316,-0.00472596909305574,-0.005112321654369206,-8.005757875119825e-05,0.15636178864581063,-0.19309159815716942,-0.11491233465888964,0.042391340354300935,0.026952010557010044,0.028202073268396646,0.0006379430055745519,-1.2546558186024237,1.2964810031536822,0.9050313528207218,0.3234983478587476,-2.1968646188678815,-1.9021540589898085,-1.4199624231395296,0.9262318740980046,-1.4402697496192312,0.05907984130517802,-0.04726828884625922,0.12264206080255395,-0.5156842272934594,-0.2204592684694782,0.010641868113924549,-0.31062408119307994,0.3556188548988215,-0.8876499257458604,3.687719026164595,2.1016809824170553,-0.00548198289957158,0.13024290575130504,0.12156632779526425,0.30606089135069103,-1.5205851820695748,-0.8880512746840779,-0.1343601530686337,0.12084892015330108,0.23555609059916918,0.2670430946646819,-1.5085032524271298,-0.7413042583045535,-0.06788471234682111,-0.3187244648317582,0.3565510360368599,-0.9023163044813253,3.7457926221976643,2.148671025128409,0.012153974387265166,,,,,,,
0.24269751282690946,0.1388533232208472,0.14102685711134785,0.002028515795920755,-3.8230207366835023,3.54790562192675,3.1317308703537883,0.0017390022588465578,-0.004646227986146866,0.0,0.0,0.0,0.0,0.0,-0.8172688519986467,-2.1761035305800704,-2.0060692155746445,-0.00046876471674569674,1.5666197053328503,-4.003022797221604,-5.0128669362893135,-0.3233108575215515,-0.46872233851880685,-0.448183628681675,-0.0011254777334662662,2.603144741372481,-2.5343924019575086,-2.1173777662947093,0.0011899537859904052,0.0007681284177223071,0.0008433170504530893,-0.1370510030977904,0.3539592960743932,-0.2996475709349977,-0.20060671681844552,-0.006902682244405089,-0.004470566993128561,-0.004844403607396374,-7.38810002750448e-05,0.14419753253345474,-0.18048157868782527,-0.1061751942177178,0.0399816091691219,0.025516960718461573,0.026791804697283168,0.0006176578476153443,-1.2164256112355887,1.2610019469344147,0.8737140441171839,0.32405931401779925,-2.197302018827272,-1.9010140780558598,-1.4247598743969287,0.9242301208813961,-1.4401664770335514,0.05609661590516514,-0.04373999593901087,0.11399809339486841,-0.4797451257399269,-0.20017532166084825,0.010327258567982014,-0.2983225400012884,0.35282929072483465,-0.8643967407685538,3.5939101553532544,2.028394680862995,-0.031460954594253465,0.1314369297892776,0.12393944790046274,0.308688940633022,-1.5354938762908634,-0.8953655561172268,-0.13504153730271073,0.11780264933838244,0.23909588433191903,0.2582819493609311,-1.472094808239572,-0.7206486371519305,-0.0680645443501262,-0.30611538185060744,0.3542508709365577,-0.8788807252682653,3.65192409539264,2.0743361563297995,-0.01480153414022618,,,,,,,
0.22851121616693226,0.13155280455142554,0.13433564152993613,0.002003861787113013,-3.727044142701752,3.5696049613620495,3.102124227705305,0.001768160851764563,-0.0046352098720354624,0.0,0.0,0.0,0.0,0.0,-0.7536125372047863,-2.0910950109795494,-1.9219195983074084,-0.00035296206481804065,1.2363745791859924,-3.743984764581968,-4.790846450372578,-0.31040671550594745,-0.46233675290406356,-0.4403820855113609,-0.0010918227137961106,2.509465611390426,-2.4886542229162396,-2.0939946690363302,0.0011250025603384284,0.0007260735051065796,0.0007981249412000735,-0.13822224540516048,0.35505668469611906,-0.30101876152279927,-0.20164680429227697,-0.00652562983795278,-0.004228784794926589,-0.004589919124576536,-6.790480797760266e-05,0.13240598083536903,-0.16822851971461733,-0.0977482661993165,0.03771403288069638,0.02415502533098227,0.025448448281983806,0.0005976192297442142,-1.1791551698085712,1.2253058973207942,0.8426928018401308,0.3245916303905422,-2.197704483629945,-1.8999582393908006,-1.4292072935319373,0.9224240552524197,-1.4400687791091107,0.05323163727429261,-0.04024648026730716,0.10558386650591009,-0.44474191350085057,-0.18060656289764243,0.00976979244407921,-0.28649786308725317,0.34935156717037147,-0.841422688895832,3.5003212239076347,1.9568758763205825,-0.05574661239028034,0.13260106501446214,0.12634776602809974,0.31123051696332477,-1.5500431593366826,-0.9024767950328899,-0.13572587512542258,0.11487704924065645,0.2426045396848663,0.24975197077382277,-1.4366231173636466,-0.7007169061618558,-0.0684954832238762,-0.2939910884799157,0.35122293468784427,-0.8557303856382718,3.5582283680228244,2.0017417109560234,-0.04010698417078371,,,,,,,
0.21519202917175476,0.12460217070998925,0.12794715438227758,0.0019759056413159895,-3.6338041604885962,3.5796779461191974,3.0637189953763855,0.001797249640719716,-0.004624008767775061,0.0,0.0,0.0,0.0,0.0,-0.6931920025601328,-2.0079338842598964,-1.8400864261971883,-0.00024239578661450223,0.9239171212480655,-3.491871814359276,-4.569620032283028,-0.2976480546898564,-0.4553145293690702,-0.43211415744229703,-0.0010582139842301448,2.416877334843623,-2.441411297559103,-2.0675949057049268,0.001063591821500398,0.0006862853529535336,0.0007552461871902089,-0.13930514171394615,0.3560532355287238,-0.3022915832371254,-0.20260831479828087,-0.006169919818914169,-0.003999926333257901,-0.004348229357194926,-6.212620624429212e-05,0.12097780955333218,-0.1563334285360213,-0.08962771008045282,0.03557993970009014,0.022862707378374682,0.02416897673816103,0.0005778601733310543,-1.1428171282036852,1.1895091178596022,0.812055611886367,0.3250964330932669,-2.198072423919757,-1.8989842730929392,-1.4333140083451785,0.9208067050730941,-1.4399789106579288,0.05048027027247539,-0.036794028981191905,0.09739662978613352,-0.41067148132411074,-0.16173501793254993,0.008986845118178252,-0.2751367001817216,0.3452451286115251,-0.8187236719776566,3.407043217673985,1.8871544965092495,-0.07829473259009578,0.13373649542860533,0.1287909415481606,0.3136879184825807,-1.5642423801407608,-0.9093921392015012,-0.13641558879495888,0.11206741897481237,0.24607546340764816,0.24145037701977526,-1.4020854973793575,-0.6814912672307418,-0.06916042391739233,-0.2823384356745434,0.3475284473545234,-0.8328589787840766,3.4647908065129784,1.9309229177517442,-0.06370831064774864,,,,,,,
0.20268620011200736,0.11798528407479594,0.12184939174875176,0.0019449223418840553,-3.543196330407916,3.578671592416316,3.017577517474701,0.0018262674773364379,-0.00461262511556608,0.0,0.0,0.0,0.0,0.0,-0.6359558371797962,-1.9268377510860915,-1.7607172367703177,-0.00013695975972702858,0.6288100575791188,-3.246894493945236,-4.35007659161651,-0.28508140446946145,-0.4477669536750195,-0.4234764228546805,-0.0010247191875280383,2.325582765320644,-2.392873909602162,-2.0384995267624824,0.0010055232992821628,0.0006486448918460183,0.0007145701631236234,-0.14030162491565112,0.3569526033261403,-0.30346909996194155,-0.20349428580734355,-0.005834298695513958,-0.0037833287993522327,-0.004118724528988191,-5.654209674516998e-05,0.10990395790433612,-0.14479620451666692,-0.08180891171333662,0.03357119534416504,0.021636671216272878,0.022950482820673513,0.0005584109499122137,-1.107385164899606,1.153722401935439,0.78187983671162,0.3255748132496363,-2.1984063075267817,-1.898089936654232,-1.4370893058792626,0.9193712801302466,-1.4398989498017103,0.0478380156369348,-0.03338836070249224,0.089433643870715,-0.377529753408401,-0.14354249428475235,0.007996085621862865,-0.26422546355405907,0.34056682786996706,-0.7962985915418521,3.314172791570976,1.8192523647797572,-0.09907594963153876,0.13484435871368397,0.1312685706442347,0.3160634154527343,-1.57810085573036,-0.9161185576176035,-0.13711292859668112,0.10936919217723308,0.24950264427363883,0.23337441329456898,-1.3684783342008866,-0.6629536625965483,-0.07004189139873863,-0.2711440032668048,0.34322592989632406,-0.8102634168265238,3.3717037539607815,1.8619067204725606,-0.08556671364156672,,,,,,,
